!!!!SEGMENT: pl-wtm--r-1723--004_stefani-jozef--noc-i-poranek-w-obozie-adagio-andantino.krn
!!!cenid: 18xx:2330
!!!COM: Stefani, Józef
!!!COM-rismid: pe30024097
!!!CDT: 1800/04/16-1876/03/19
!!!CNT: Polish
!!!OPR: Noc i poranek w obozie
!!!OTL: Adagio-Andantino
!!!OMV: 004
!!!PDT:
!!!AGN: Secular
!!!SMS-siglum: PL-Wtm
!!!SMS-shelfmark: R 1723
!!!SMS-shelfwork: 001-004 M
!!!SMS-variant:
!!!SMS-altvar:
!!!NIFC-rismid: 1001128950
!!!URL-scan: http://repozytorium.nifc.pl/skany/pl-wtm-nut--r1723
!!!ONB-nifc: UWAGA: skany 0016-0020 (nast. cz. Allegro)
!!!OMD: Adagio
**kern	**kern	**dynam	**kern	**dynam	**kern	**dynam	**kern	**dynam	**kern	**dynam	**kern	**kern	**dynam	**kern	**dynam	**kern	**kern	**dynam	**kern	**kern	**kern	**dynam	**kern	**kern	**dynam	**kern	**dynam	**kern	**dynam	**kern	**dynam
*part19	*part18	*part18	*part17	*part17	*part16	*part16	*part15	*part15	*part14	*part14	*part13	*part12	*part12	*part11	*part11	*part10	*part9	*part9	*part8	*part7	*part6	*part6	*part5	*part4	*part4	*part3	*part3	*part2	*part2	*part1	*part1
*staff19	*staff18	*	*staff17	*	*staff16	*	*staff15	*	*staff14	*	*staff13	*staff12	*	*staff11	*	*staff10	*staff9	*	*staff8	*staff7	*staff6	*	*staff5	*staff4	*	*staff3	*	*staff2	*	*staff1	*
*Idrum	*Icbass	*	*Icello	*	*Iviola	*	*Ivioln	*	*Ivioln	*	*Ibdrum	*Itrngl	*	*Itimp	*	*Itromt	*Itromt	*	*Itromp	*Itromp	*Ifagot	*	*Icor	*Iclars	*	*Ioboe	*	*Ipicco	*	*Iflt	*
*I"P. Tambour	*I"C: Baſsi	*	*I"Violoncelli	*	*I"Viole	*	*I"Violini	*	*I"Violini	*	*I"G. Caſsa	*I"Triangolo	*	*I"in C. G. Timpani	*	*I"Tromboni	*I"Tromboni	*	*I"in C Trombe tutti	*I"solo Tromba in	*I"Fagoto	*	*I"in C Corni	*I"in C Clarinetti	*	*I"Oboe	*	*I"F. Picolo	*	*I"Flauto	*
*clefF4	*clefF4	*	*clefF4	*	*clefC3	*	*clefG2	*	*clefG2	*	*clefF4	*clefG2	*	*clefF4	*	*clefC4	*clefC4	*	*clefG2	*clefG2	*clefF4	*	*clefG2	*clefG2	*	*clefG2	*	*clefG2	*	*clefG2	*
*	*Trd0c0	*	*	*	*	*	*	*	*	*	*	*	*	*	*	*	*	*	*	*	*	*	*	*	*	*	*	*Trd0c0	*	*	*
*k[b-e-a-]	*k[b-e-a-]	*	*k[b-e-a-]	*	*k[b-e-a-]	*	*k[b-e-a-]	*	*k[b-e-a-]	*	*k[b-e-a-]	*k[b-e-a-]	*	*k[b-e-a-]	*	*k[b-e-a-]	*k[b-e-a-]	*	*k[b-e-a-]	*k[b-e-a-]	*k[b-e-a-]	*	*k[b-e-a-]	*k[b-e-a-]	*	*k[b-e-a-]	*	*k[b-e-a-]	*	*k[b-e-a-]	*
*c:	*c:	*	*c:	*	*c:	*	*c:	*	*c:	*	*c:	*c:	*	*c:	*	*c:	*c:	*	*c:	*c:	*c:	*	*c:	*c:	*	*c:	*	*c:	*	*c:	*
*M4/4	*M4/4	*	*M4/4	*	*M4/4	*	*M4/4	*	*M4/4	*	*M4/4	*M4/4	*	*M4/4	*	*M4/4	*M4/4	*	*M4/4	*M4/4	*M4/4	*	*M4/4	*M4/4	*	*M4/4	*	*M4/4	*	*M4/4	*
*met(c)	*met(c)	*	*met(c)	*	*met(c)	*	*met(c)	*	*met(c)	*	*met(c)	*met(c)	*	*met(c)	*	*met(c)	*met(c)	*	*met(c)	*met(c)	*met(c)	*	*met(c)	*met(c)	*	*met(c)	*	*met(c)	*	*met(c)	*
*all\right	*all\right	*	*all\right	*	*all\right	*	*all\right	*	*all\right	*	*all\right	*all\right	*	*all\right	*	*all\right	*all\right	*	*all\right	*all\right	*all\right	*	*all\right	*all\right	*	*all\right	*	*all\right	*	*all\right	*
*2\right	*2\right	*	*2\right	*	*2\right	*	*2\right	*	*2\right	*	*2\right	*2\right	*	*2\right	*	*2\right	*2\right	*	*2\right	*2\right	*2\right	*	*2\right	*2\right	*	*2\right	*	*2\right	*	*2\right	*
8ryy	8r	.	8r	.	8r	.	8r	.	8r	.	8r	8r	.	8r	.	8r	8r	.	8r	8g/	8r	.	8r	8r	.	8r	.	8r	.	8r	.
=1	=1	=1	=1	=1	=1	=1	=1	=1	=1	=1	=1	=1	=1	=1	=1	=1	=1	=1	=1	=1	=1	=1	=1	=1	=1	=1	=1	=1	=1	=1	=1
!	!	!	!LO:TX:a:t=P:problem:od tego miejsca do końca taktu 19 partia dubluje partię kontrabasu; pozostawione puste takty; oznaczone znakiem repetycji	!	!	!	!	!LO:DY:b:rj	!	!	!	!	!	!	!	!	!	!	!	!	!	!	!	!	!	!	!	!	!	!	!
!LO:TX:a:t=P:problem:w tej części ta partia nie występuje i została w źródle w ogóle pominięta	!	!LO:DY:b:rj	!	!LO:DY:b:rj	!	!	!	!	!	!	!	!	!	!	!	!	!	!	!	!	!	!	!	!	!	!	!	!	!	!	!
1ryy	8C/	p	8C/yy	p	16r	.	16r	p	1r	.	1r	1r	.	1r	.	1r	1r	.	1r	(>8cc\L	1r	.	1r	1r	.	1r	.	1r	.	1r	.
.	.	.	.	.	16c\LL	.	16e-LL 16G/	.	.	.	.	.	.	.	.	.	.	.	.	.	.	.	.	.	.	.	.	.	.	.	.
.	8r	.	8ryy	.	16c\	.	16e- 16G/	.	.	.	.	.	.	.	.	.	.	.	.	32cc\LL	.	.	.	.	.	.	.	.	.	.	.
.	.	.	.	.	.	.	.	.	.	.	.	.	.	.	.	.	.	.	.	32dd\	.	.	.	.	.	.	.	.	.	.	.
.	.	.	.	.	16c\JJ	.	16e-JJ 16G/	.	.	.	.	.	.	.	.	.	.	.	.	32cc\	.	.	.	.	.	.	.	.	.	.	.
.	.	.	.	.	.	.	.	.	.	.	.	.	.	.	.	.	.	.	.	32bn\JJJ)	.	.	.	.	.	.	.	.	.	.	.
.	4r	.	4ryy	.	8c\	.	8e- 8G/	.	.	.	.	.	.	.	.	.	.	.	.	8.cc\L	.	.	.	.	.	.	.	.	.	.	.
.	.	.	.	.	8r	.	8r	.	.	.	.	.	.	.	.	.	.	.	.	.	.	.	.	.	.	.	.	.	.	.	.
.	.	.	.	.	.	.	.	.	.	.	.	.	.	.	.	.	.	.	.	(>16dd\Jk	.	.	.	.	.	.	.	.	.	.	.
.	8C/	.	8C/yy	.	16r	.	16r	.	.	.	.	.	.	.	.	.	.	.	.	8ee-\L	.	.	.	.	.	.	.	.	.	.	.
.	.	.	.	.	16c\LL	.	16e-LL 16G/	.	.	.	.	.	.	.	.	.	.	.	.	.	.	.	.	.	.	.	.	.	.	.	.
.	8r	.	8ryy	.	16c\	.	16e- 16G/	.	.	.	.	.	.	.	.	.	.	.	.	32ee-\LL	.	.	.	.	.	.	.	.	.	.	.
.	.	.	.	.	.	.	.	.	.	.	.	.	.	.	.	.	.	.	.	32ff\	.	.	.	.	.	.	.	.	.	.	.
.	.	.	.	.	16c\JJ	.	16e-JJ 16G/	.	.	.	.	.	.	.	.	.	.	.	.	32ee-\	.	.	.	.	.	.	.	.	.	.	.
.	.	.	.	.	.	.	.	.	.	.	.	.	.	.	.	.	.	.	.	32dd\JJJ	.	.	.	.	.	.	.	.	.	.	.
.	4r	.	4ryy	.	8c\	.	8e- 8G/	.	.	.	.	.	.	.	.	.	.	.	.	8.ee-\L	.	.	.	.	.	.	.	.	.	.	.
.	.	.	.	.	8r	.	8r	.	.	.	.	.	.	.	.	.	.	.	.	.	.	.	.	.	.	.	.	.	.	.	.
.	.	.	.	.	.	.	.	.	.	.	.	.	.	.	.	.	.	.	.	16ff\Jk)	.	.	.	.	.	.	.	.	.	.	.
=2	=2	=2	=2	=2	=2	=2	=2	=2	=2	=2	=2	=2	=2	=2	=2	=2	=2	=2	=2	=2	=2	=2	=2	=2	=2	=2	=2	=2	=2	=2	=2
!	!	!	!	!	!	!	!	!	!	!LO:DY:a	!	!	!	!	!	!	!	!	!	!	!	!	!	!	!	!	!	!	!	!	!
1ryy	8BBn/	.	8BBn/yy	.	16r	.	16r	.	8r	p	1ryy	1ryy	.	1ryy	.	1ryy	1ryy	.	1r	(>4.gg\	1ryy	.	1ryy	1ryy	.	1ryy	.	1r	.	1r	.
.	.	.	.	.	16d\LL	.	16fLL 16G/	.	.	.	.	.	.	.	.	.	.	.	.	.	.	.	.	.	.	.	.	.	.	.	.
!	!	!	!	!	!	!	!	!	!	!LO:HP:b	!	!	!	!	!	!	!	!	!	!	!	!	!	!	!	!	!	!	!	!	!
.	8r	.	8ryy	.	16d\	.	16f 16G/	.	(>4gg\	>	.	.	.	.	.	.	.	.	.	.	.	.	.	.	.	.	.	.	.	.	.
.	.	.	.	.	16d\JJ	.	16fJJ 16G/	.	.	.	.	.	.	.	.	.	.	.	.	.	.	.	.	.	.	.	.	.	.	.	.
.	4r	.	4ryy	.	8d\	.	8f 8G/	.	.	.	.	.	.	.	.	.	.	.	.	.	.	.	.	.	.	.	.	.	.	.	.
.	.	.	.	.	8r	.	8r	.	16ff\LL	]	.	.	.	.	.	.	.	.	.	16ff\LL	.	.	.	.	.	.	.	.	.	.	.
.	.	.	.	.	.	.	.	.	16ee-\JJ	.	.	.	.	.	.	.	.	.	.	16ee-\JJ	.	.	.	.	.	.	.	.	.	.	.
.	8BB/	.	8BB/yy	.	16r	.	16r	.	4dd\)	.	.	.	.	.	.	.	.	.	.	4dd\)	.	.	.	.	.	.	.	.	.	.	.
.	.	.	.	.	16d\LL	.	16fLL 16G/	.	.	.	.	.	.	.	.	.	.	.	.	.	.	.	.	.	.	.	.	.	.	.	.
.	8r	.	8ryy	.	16d\	.	16f 16G/	.	.	.	.	.	.	.	.	.	.	.	.	.	.	.	.	.	.	.	.	.	.	.	.
.	.	.	.	.	16d\JJ	.	16fJJ 16G/	.	.	.	.	.	.	.	.	.	.	.	.	.	.	.	.	.	.	.	.	.	.	.	.
.	4r	.	4ryy	.	8d\	.	8f 8G/	.	4r	.	.	.	.	.	.	.	.	.	.	8r	.	.	.	.	.	.	.	.	.	.	.
.	.	.	.	.	8r	.	8r	.	.	.	.	.	.	.	.	.	.	.	.	8dd\	.	.	.	.	.	.	.	.	.	.	.
=3	=3	=3	=3	=3	=3	=3	=3	=3	=3	=3	=3	=3	=3	=3	=3	=3	=3	=3	=3	=3	=3	=3	=3	=3	=3	=3	=3	=3	=3	=3	=3
1ryy	8C/	.	8C/yy	.	16r	.	16r	.	1r	.	1ryy	1ryy	.	1ryy	.	1ryy	1ryy	.	1r	4.ee-\	1ryy	.	1ryy	1ryy	.	1ryy	.	1r	.	1r	.
.	.	.	.	.	16c\LL	.	16e-LL 16G/	.	.	.	.	.	.	.	.	.	.	.	.	.	.	.	.	.	.	.	.	.	.	.	.
.	8r	.	8ryy	.	16c\	.	16e- 16G/	.	.	.	.	.	.	.	.	.	.	.	.	.	.	.	.	.	.	.	.	.	.	.	.
.	.	.	.	.	16c\JJ	.	16e-JJ 16G/	.	.	.	.	.	.	.	.	.	.	.	.	.	.	.	.	.	.	.	.	.	.	.	.
.	4r	.	4ryy	.	8c\	.	8e- 8G/	.	.	.	.	.	.	.	.	.	.	.	.	.	.	.	.	.	.	.	.	.	.	.	.
.	.	.	.	.	8r	.	8r	.	.	.	.	.	.	.	.	.	.	.	.	8dd\	.	.	.	.	.	.	.	.	.	.	.
*	*	*	*	*	*rep	*	*rep	*	*	*	*	*	*	*	*	*	*	*	*	*	*	*	*	*	*	*	*	*	*	*	*
.	8C/	.	8C/yy	.	16r	.	16r	.	.	.	.	.	.	.	.	.	.	.	.	8.cc\L	.	.	.	.	.	.	.	.	.	.	.
.	.	.	.	.	16c\LL	.	16e-LL 16G/	.	.	.	.	.	.	.	.	.	.	.	.	.	.	.	.	.	.	.	.	.	.	.	.
.	8r	.	8ryy	.	16c\	.	16e- 16G/	.	.	.	.	.	.	.	.	.	.	.	.	.	.	.	.	.	.	.	.	.	.	.	.
.	.	.	.	.	16c\JJ	.	16e-JJ 16G/	.	.	.	.	.	.	.	.	.	.	.	.	16bn\K	.	.	.	.	.	.	.	.	.	.	.
.	4r	.	4ryy	.	8c\	.	8e- 8G/	.	.	.	.	.	.	.	.	.	.	.	.	8.cc\	.	.	.	.	.	.	.	.	.	.	.
.	.	.	.	.	8r	.	8r	.	.	.	.	.	.	.	.	.	.	.	.	.	.	.	.	.	.	.	.	.	.	.	.
.	.	.	.	.	.	.	.	.	.	.	.	.	.	.	.	.	.	.	.	16dd\Jk	.	.	.	.	.	.	.	.	.	.	.
*	*	*	*	*	*Xrep	*	*Xrep	*	*	*	*	*	*	*	*	*	*	*	*	*	*	*	*	*	*	*	*	*	*	*	*
!!LO:PB:g=original
=4	=4	=4	=4	=4	=4	=4	=4	=4	=4	=4	=4	=4	=4	=4	=4	=4	=4	=4	=4	=4	=4	=4	=4	=4	=4	=4	=4	=4	=4	=4	=4
1ryy	8GG/	.	8GG/yy	.	16r	.	16r	.	8r	.	1r	1r	.	1r	.	1r	1r	.	1r	(>4.bn\	1r	.	1r	1r	.	2r	.	1r	.	1r	.
.	.	.	.	.	16Bn\LL	.	16dLL 16G/	.	.	.	.	.	.	.	.	.	.	.	.	.	.	.	.	.	.	.	.	.	.	.	.
.	8r	.	8ryy	.	16B\	.	16d 16G/	.	(>4bbn\	.	.	.	.	.	.	.	.	.	.	.	.	.	.	.	.	.	.	.	.	.	.
.	.	.	.	.	16B\JJ	.	16dJJ 16G/	.	.	.	.	.	.	.	.	.	.	.	.	.	.	.	.	.	.	.	.	.	.	.	.
.	4r	.	4ryy	.	8B\	.	8d 8G/	.	.	.	.	.	.	.	.	.	.	.	.	.	.	.	.	.	.	.	.	.	.	.	.
.	.	.	.	.	8r	.	8r	.	16ccc\LL	.	.	.	.	.	.	.	.	.	.	16cc\LL	.	.	.	.	.	.	.	.	.	.	.
.	.	.	.	.	.	.	.	.	16ddd\JJ)	.	.	.	.	.	.	.	.	.	.	16dd\JJ	.	.	.	.	.	.	.	.	.	.	.
*	*	*	*	*	*rep	*	*rep	*	*	*	*	*	*	*	*	*	*	*	*	*	*	*	*	*	*	*	*	*	*	*	*
.	8GG/	.	8GG/yy	.	16r	.	16r	.	4gg\	.	.	.	.	.	.	.	.	.	.	4g/)	.	.	.	.	.	8r	.	.	.	.	.
.	.	.	.	.	16B\LL	.	16dLL 16G/	.	.	.	.	.	.	.	.	.	.	.	.	.	.	.	.	.	.	.	.	.	.	.	.
.	8r	.	8ryy	.	16B\	.	16d 16G/	.	.	.	.	.	.	.	.	.	.	.	.	.	.	.	.	.	.	(>16gg\LL	.	.	.	.	.
.	.	.	.	.	16B\JJ	.	16dJJ 16G/	.	.	.	.	.	.	.	.	.	.	.	.	.	.	.	.	.	.	32aa-\L	.	.	.	.	.
.	.	.	.	.	.	.	.	.	.	.	.	.	.	.	.	.	.	.	.	.	.	.	.	.	.	32gg\JJJ)	.	.	.	.	.
.	4r	.	4ryy	.	8B\	.	8d 8G/	.	4r	.	.	.	.	.	.	.	.	.	.	8r	.	.	.	.	.	8ff\L	.	.	.	.	.
.	.	.	.	.	8r	.	8r	.	.	.	.	.	.	.	.	.	.	.	.	8g/	.	.	.	.	.	8dd'\J	.	.	.	.	.
*	*	*	*	*	*Xrep	*	*Xrep	*	*	*	*	*	*	*	*	*	*	*	*	*	*	*	*	*	*	*	*	*	*	*	*
=5	=5	=5	=5	=5	=5	=5	=5	=5	=5	=5	=5	=5	=5	=5	=5	=5	=5	=5	=5	=5	=5	=5	=5	=5	=5	=5	=5	=5	=5	=5	=5
1ryy	8C/	.	8C/yy	.	16r	.	16r	.	1r	.	1ryy	1ryy	.	1ryy	.	1ryy	1ryy	.	1ryy	(>8cc\L	1r	.	1r	1r	.	1r	.	1r	.	1r	.
.	.	.	.	.	16c\LL	.	16e-LL 16G/	.	.	.	.	.	.	.	.	.	.	.	.	.	.	.	.	.	.	.	.	.	.	.	.
.	8r	.	8ryy	.	16c\	.	16e- 16G/	.	.	.	.	.	.	.	.	.	.	.	.	32cc\LL	.	.	.	.	.	.	.	.	.	.	.
.	.	.	.	.	.	.	.	.	.	.	.	.	.	.	.	.	.	.	.	32dd\	.	.	.	.	.	.	.	.	.	.	.
.	.	.	.	.	16c\JJ	.	16e-JJ 16G/	.	.	.	.	.	.	.	.	.	.	.	.	32cc\	.	.	.	.	.	.	.	.	.	.	.
.	.	.	.	.	.	.	.	.	.	.	.	.	.	.	.	.	.	.	.	32bn\JJJ	.	.	.	.	.	.	.	.	.	.	.
.	4r	.	4ryy	.	8c\	.	8e- 8G/	.	.	.	.	.	.	.	.	.	.	.	.	8.cc\L)	.	.	.	.	.	.	.	.	.	.	.
.	.	.	.	.	8r	.	8r	.	.	.	.	.	.	.	.	.	.	.	.	.	.	.	.	.	.	.	.	.	.	.	.
.	.	.	.	.	.	.	.	.	.	.	.	.	.	.	.	.	.	.	.	16dd\Jk|	.	.	.	.	.	.	.	.	.	.	.
*	*	*	*	*	*rep	*	*rep	*	*	*	*	*	*	*	*	*	*	*	*	*	*	*	*	*	*	*	*	*	*	*	*
.	8C/	.	8C/yy	.	16r	.	16r	.	.	.	.	.	.	.	.	.	.	.	.	(>8ee-\L	.	.	.	.	.	.	.	.	.	.	.
.	.	.	.	.	16c\LL	.	16e-LL 16G/	.	.	.	.	.	.	.	.	.	.	.	.	.	.	.	.	.	.	.	.	.	.	.	.
.	8r	.	8ryy	.	16c\	.	16e- 16G/	.	.	.	.	.	.	.	.	.	.	.	.	32ee-\LL	.	.	.	.	.	.	.	.	.	.	.
.	.	.	.	.	.	.	.	.	.	.	.	.	.	.	.	.	.	.	.	32ff\	.	.	.	.	.	.	.	.	.	.	.
.	.	.	.	.	16c\JJ	.	16e-JJ 16G/	.	.	.	.	.	.	.	.	.	.	.	.	32ee-\	.	.	.	.	.	.	.	.	.	.	.
.	.	.	.	.	.	.	.	.	.	.	.	.	.	.	.	.	.	.	.	32dd\JJJ	.	.	.	.	.	.	.	.	.	.	.
!	!	!	!	!	!	!	!	!	!	!LO:DY:b	!	!	!	!	!	!	!	!	!	!	!	!	!	!	!	!	!	!	!	!	!
.	4r	.	4ryy	.	8c\	.	8e- 8G/	.	.	p	.	.	.	.	.	.	.	.	.	8.ee-\L)	.	.	.	.	.	.	.	.	.	.	.
!	!	!	!	!	!	!	!	!	!	!	!	!	!	!	!	!	!	!	!	!	!	!	!	!	!	!	!	!	!	!	!LO:DY:b
.	.	.	.	.	8r	.	8r	.	.	.	.	.	.	.	.	.	.	.	.	.	.	.	.	.	.	.	.	.	.	.	p
.	.	.	.	.	.	.	.	.	.	.	.	.	.	.	.	.	.	.	.	16ff\Jk|	.	.	.	.	.	.	.	.	.	.	.
*	*	*	*	*	*Xrep	*	*Xrep	*	*	*	*	*	*	*	*	*	*	*	*	*	*	*	*	*	*	*	*	*	*	*	*
=6	=6	=6	=6	=6	=6	=6	=6	=6	=6	=6	=6	=6	=6	=6	=6	=6	=6	=6	=6	=6	=6	=6	=6	=6	=6	=6	=6	=6	=6	=6	=6
*	*	*	*	*	*	*	*	*	*	*	*	*	*	*	*	*	*	*	*	*	*	*	*	*^	*	*	*	*	*	*	*
!	!	!	!	!	!	!	!	!	!	!	!	!	!	!	!	!	!	!	!	!	!	!LO:DY:a:rj	!	!	!	!LO:DY:b:rj	!	!	!	!	!	!
1ryy	8BB-/	.	8BB-/yy	.	16r	.	16r	.	8r	.	1ryy	1ryy	.	1ryy	.	1ryy	1ryy	.	1ryy	(>4.gg\	[>1B-	p	1r	(>1g	(<1e-	p	1r	.	1r	.	8r	.
.	.	.	.	.	16B-\LL	.	16e-LL 16G/	.	.	.	.	.	.	.	.	.	.	.	.	.	.	.	.	.	.	.	.	.	.	.	.	.
!	!	!	!	!	!	!	!	!	!	!	!	!	!	!	!	!	!	!	!	!	!	!	!	!	!	!	!	!	!	!	!	!LO:HP:b
.	8r	.	8ryy	.	16B-\	.	16e- 16G/	.	(>4gg\	.	.	.	.	.	.	.	.	.	.	.	.	.	.	.	.	.	.	.	.	.	(>4eee-\	>
.	.	.	.	.	16B-\JJ	.	16e-JJ 16G/	.	.	.	.	.	.	.	.	.	.	.	.	.	.	.	.	.	.	.	.	.	.	.	.	.
.	4r	.	4ryy	.	8B-\	.	8e- 8G/	.	.	.	.	.	.	.	.	.	.	.	.	.	.	.	.	.	.	.	.	.	.	.	.	.
.	.	.	.	.	8r	.	8r	.	16ff\LL	.	.	.	.	.	.	.	.	.	.	16ff\LL	.	.	.	.	.	.	.	.	.	.	16ddd\LL	]
.	.	.	.	.	.	.	.	.	16ee-\JJ	.	.	.	.	.	.	.	.	.	.	16ee-\JJ)	.	.	.	.	.	.	.	.	.	.	16ccc\JJ	.
*	*	*	*	*	*rep	*	*rep	*	*	*	*	*	*	*	*	*	*	*	*	*	*	*	*	*	*	*	*	*	*	*	*	*
.	8BB-/	.	8BB-/yy	.	16r	.	16r	.	4dd\)	.	.	.	.	.	.	.	.	.	.	4b-\	.	.	.	.	.	.	.	.	.	.	4bb-\)	.
.	.	.	.	.	16B-\LL	.	16e-LL 16G/	.	.	.	.	.	.	.	.	.	.	.	.	.	.	.	.	.	.	.	.	.	.	.	.	.
.	8r	.	8ryy	.	16B-\	.	16e- 16G/	.	.	.	.	.	.	.	.	.	.	.	.	.	.	.	.	.	.	.	.	.	.	.	.	.
.	.	.	.	.	16B-\JJ	.	16e-JJ 16G/	.	.	.	.	.	.	.	.	.	.	.	.	.	.	.	.	.	.	.	.	.	.	.	.	.
.	4r	.	4ryy	.	8B-\	.	8e- 8G/	.	4r	.	.	.	.	.	.	.	.	.	.	8r	.	.	.	.	.	.	.	.	.	.	4r	.
.	.	.	.	.	8r	.	8r	.	.	.	.	.	.	.	.	.	.	.	.	8b-\	.	.	.	.	.	.	.	.	.	.	.	.
*	*	*	*	*	*Xrep	*	*Xrep	*	*	*	*	*	*	*	*	*	*	*	*	*	*	*	*	*	*	*	*	*	*	*	*	*
=7	=7	=7	=7	=7	=7	=7	=7	=7	=7	=7	=7	=7	=7	=7	=7	=7	=7	=7	=7	=7	=7	=7	=7	=7	=7	=7	=7	=7	=7	=7	=7	=7
1ryy	8BB-/	.	8BB-/yy	.	16r	.	16r	.	1r	.	1ryy	1ryy	.	1ryy	.	1ryy	1ryy	.	1ryy	4.cc-X\	1B-]	.	1r	1a-)	1d)	.	1r	.	1r	.	1r	.
.	.	.	.	.	16B-/LL	.	16fLL 16A-/	.	.	.	.	.	.	.	.	.	.	.	.	.	.	.	.	.	.	.	.	.	.	.	.	.
.	8r	.	8ryy	.	16B-/	.	16f 16A-/	.	.	.	.	.	.	.	.	.	.	.	.	.	.	.	.	.	.	.	.	.	.	.	.	.
.	.	.	.	.	16B-/JJ	.	16fJJ 16A-/	.	.	.	.	.	.	.	.	.	.	.	.	.	.	.	.	.	.	.	.	.	.	.	.	.
.	4r	.	4ryy	.	8B-/	.	8f 8A-/	.	.	.	.	.	.	.	.	.	.	.	.	.	.	.	.	.	.	.	.	.	.	.	.	.
.	.	.	.	.	8r	.	8r	.	.	.	.	.	.	.	.	.	.	.	.	8d/	.	.	.	.	.	.	.	.	.	.	.	.
.	8BB-/	.	8BB-/yy	.	16r	.	16r	.	.	.	.	.	.	.	.	.	.	.	.	(<4ccn/	.	.	.	.	.	.	.	.	.	.	.	.
.	.	.	.	.	16B-LL 16F/	.	16dLL 16A-/	.	.	.	.	.	.	.	.	.	.	.	.	.	.	.	.	.	.	.	.	.	.	.	.	.
.	8r	.	8ryy	.	16B- 16F/	.	16d 16A-/	.	.	.	.	.	.	.	.	.	.	.	.	.	.	.	.	.	.	.	.	.	.	.	.	.
.	.	.	.	.	16B-JJ 16F/	.	16dJJ 16A-/	.	.	.	.	.	.	.	.	.	.	.	.	.	.	.	.	.	.	.	.	.	.	.	.	.
.	4r	.	4ryy	.	8B- 8F/	.	8d 8A-/	.	.	.	.	.	.	.	.	.	.	.	.	16cc/LL	.	.	.	.	.	.	.	.	.	.	.	.
.	.	.	.	.	.	.	.	.	.	.	.	.	.	.	.	.	.	.	.	16b-/	.	.	.	.	.	.	.	.	.	.	.	.
.	.	.	.	.	8r	.	8r	.	.	.	.	.	.	.	.	.	.	.	.	16a-/	.	.	.	.	.	.	.	.	.	.	.	.
.	.	.	.	.	.	.	.	.	.	.	.	.	.	.	.	.	.	.	.	16g/JJ)	.	.	.	.	.	.	.	.	.	.	.	.
!!LO:PB:g=original
=8	=8	=8	=8	=8	=8	=8	=8	=8	=8	=8	=8	=8	=8	=8	=8	=8	=8	=8	=8	=8	=8	=8	=8	=8	=8	=8	=8	=8	=8	=8	=8	=8
1ryy	8E-\	.	8E-\yy	.	16r	.	16r	.	2r	.	1r	1r	.	1r	.	1r	1r	.	1r	4e-/	2.B-\	.	1r	2.g/	2.e-\	.	1r	.	1r	.	2r	.
.	.	.	.	.	16B-LL 16E-/	.	16e-LL 16G/	.	.	.	.	.	.	.	.	.	.	.	.	.	.	.	.	.	.	.	.	.	.	.	.	.
.	8r	.	8ryy	.	16B- 16E-/	.	16e- 16G/	.	.	.	.	.	.	.	.	.	.	.	.	.	.	.	.	.	.	.	.	.	.	.	.	.
.	.	.	.	.	16B-JJ 16E-/	.	16e-JJ 16G/	.	.	.	.	.	.	.	.	.	.	.	.	.	.	.	.	.	.	.	.	.	.	.	.	.
.	4r	.	4ryy	.	8B- 8E-/	.	8e- 8G/	.	.	.	.	.	.	.	.	.	.	.	.	(<16d/LL	.	.	.	.	.	.	.	.	.	.	.	.
.	.	.	.	.	.	.	.	.	.	.	.	.	.	.	.	.	.	.	.	16e-/	.	.	.	.	.	.	.	.	.	.	.	.
!	!	!	!	!	!	!	!	!	!	!LO:DY:b	!	!	!	!	!	!	!	!	!	!	!	!	!	!	!	!	!	!	!	!	!	!
.	.	.	.	.	8r	.	8r	.	.	p	.	.	.	.	.	.	.	.	.	16g/	.	.	.	.	.	.	.	.	.	.	.	.
.	.	.	.	.	.	.	.	.	.	.	.	.	.	.	.	.	.	.	.	16b-/JJ	.	.	.	.	.	.	.	.	.	.	.	.
*	*	*	*	*	*rep	*	*rep	*	*	*	*	*	*	*	*	*	*	*	*	*	*	*	*	*	*	*	*	*	*	*	*	*
.	8E-\	.	8E-\yy	.	16r	.	16r	.	8r	.	.	.	.	.	.	.	.	.	.	4ee-\)	.	.	.	.	.	.	.	.	.	.	8r	.
.	.	.	.	.	16B-LL 16E-/	.	16e-LL 16G/	.	.	.	.	.	.	.	.	.	.	.	.	.	.	.	.	.	.	.	.	.	.	.	.	.
.	8r	.	8ryy	.	16B- 16E-/	.	16e- 16G/	.	(<16g/LL	.	.	.	.	.	.	.	.	.	.	.	.	.	.	.	.	.	.	.	.	.	(>16gg\LL	.
.	.	.	.	.	16B-JJ 16E-/	.	16e-JJ 16G/	.	16b-/J)	.	.	.	.	.	.	.	.	.	.	.	.	.	.	.	.	.	.	.	.	.	16bb-\J)	.
.	4r	.	4ryy	.	8B- 8E-/	.	8e- 8G/	.	8ee-/J	.	.	.	.	.	.	.	.	.	.	8r	4r	.	.	4r	4rcyy	.	.	.	.	.	8eee-\J	.
.	.	.	.	.	8r	.	8r	.	8r	.	.	.	.	.	.	.	.	.	.	8ee-\	.	.	.	.	.	.	.	.	.	.	8r	.
*	*	*	*	*	*Xrep	*	*Xrep	*	*	*	*	*	*	*	*	*	*	*	*	*	*	*	*	*	*	*	*	*	*	*	*	*
*	*	*	*	*	*	*	*	*	*	*	*	*	*	*	*	*	*	*	*	*	*	*	*	*v	*v	*	*	*	*	*	*	*
=9	=9	=9	=9	=9	=9	=9	=9	=9	=9	=9	=9	=9	=9	=9	=9	=9	=9	=9	=9	=9	=9	=9	=9	=9	=9	=9	=9	=9	=9	=9	=9
1ryy	8BBn/	.	8BBn/yy	.	16r	.	16r	.	1r	.	1ryy	1ryy	.	1ryy	.	1ryy	1ryy	.	1ryy	4.dd\	1ryy	.	1ryy	1ryy	.	1ryy	.	1ryy	.	1r	.
.	.	.	.	.	16d\LL	.	16fLL 16G/	.	.	.	.	.	.	.	.	.	.	.	.	.	.	.	.	.	.	.	.	.	.	.	.
.	8r	.	8ryy	.	16d\	.	16f 16G/	.	.	.	.	.	.	.	.	.	.	.	.	.	.	.	.	.	.	.	.	.	.	.	.
.	.	.	.	.	16d\JJ	.	16fJJ 16G/	.	.	.	.	.	.	.	.	.	.	.	.	.	.	.	.	.	.	.	.	.	.	.	.
.	4r	.	4ryy	.	8d\	.	8f 8G/	.	.	.	.	.	.	.	.	.	.	.	.	.	.	.	.	.	.	.	.	.	.	.	.
.	.	.	.	.	8r	.	8r	.	.	.	.	.	.	.	.	.	.	.	.	(<16f#X/LL	.	.	.	.	.	.	.	.	.	.	.
.	.	.	.	.	.	.	.	.	.	.	.	.	.	.	.	.	.	.	.	16g/JJ)	.	.	.	.	.	.	.	.	.	.	.
*	*	*	*	*	*rep	*	*rep	*	*	*	*	*	*	*	*	*	*	*	*	*	*	*	*	*	*	*	*	*	*	*	*
.	8BB/	.	8BB/yy	.	16r	.	16r	.	.	.	.	.	.	.	.	.	.	.	.	4.dd\	.	.	.	.	.	.	.	.	.	.	.
.	.	.	.	.	16d\LL	.	16fLL 16G/	.	.	.	.	.	.	.	.	.	.	.	.	.	.	.	.	.	.	.	.	.	.	.	.
.	8r	.	8ryy	.	16d\	.	16f 16G/	.	.	.	.	.	.	.	.	.	.	.	.	.	.	.	.	.	.	.	.	.	.	.	.
.	.	.	.	.	16d\JJ	.	16fJJ 16G/	.	.	.	.	.	.	.	.	.	.	.	.	.	.	.	.	.	.	.	.	.	.	.	.
.	4r	.	4ryy	.	8d\	.	8f 8G/	.	.	.	.	.	.	.	.	.	.	.	.	.	.	.	.	.	.	.	.	.	.	.	.
.	.	.	.	.	8r	.	8r	.	.	.	.	.	.	.	.	.	.	.	.	(<16f#/LL	.	.	.	.	.	.	.	.	.	.	.
.	.	.	.	.	.	.	.	.	.	.	.	.	.	.	.	.	.	.	.	16g/JJ)	.	.	.	.	.	.	.	.	.	.	.
*	*	*	*	*	*Xrep	*	*Xrep	*	*	*	*	*	*	*	*	*	*	*	*	*	*	*	*	*	*	*	*	*	*	*	*
=10	=10	=10	=10	=10	=10	=10	=10	=10	=10	=10	=10	=10	=10	=10	=10	=10	=10	=10	=10	=10	=10	=10	=10	=10	=10	=10	=10	=10	=10	=10	=10
1ryy	8C/	.	8C/yy	.	16r	.	16r	.	8r	.	1ryy	1ryy	.	1ryy	.	1ryy	1ryy	.	1ryy	4.ee-\	1ryy	.	1ryy	1ryy	.	1ryy	.	1ryy	.	1r	.
!	!	!	!	!	!	!	!	!	!	!LO:DY:b	!	!	!	!	!	!	!	!	!	!	!	!	!	!	!	!	!	!	!	!	!
.	.	.	.	.	16c\LL	.	16e-LL 16G/	.	.	p	.	.	.	.	.	.	.	.	.	.	.	.	.	.	.	.	.	.	.	.	.
.	8r	.	8ryy	.	16c\	.	16e- 16G/	.	(>4eee-\	.	.	.	.	.	.	.	.	.	.	.	.	.	.	.	.	.	.	.	.	.	.
.	.	.	.	.	16c\JJ	.	16e-JJ 16G/	.	.	.	.	.	.	.	.	.	.	.	.	.	.	.	.	.	.	.	.	.	.	.	.
.	4r	.	4ryy	.	8c\	.	8e- 8G/	.	.	.	.	.	.	.	.	.	.	.	.	.	.	.	.	.	.	.	.	.	.	.	.
.	.	.	.	.	8r	.	8r	.	8ddd\)	.	.	.	.	.	.	.	.	.	.	8dd\	.	.	.	.	.	.	.	.	.	.	.
*	*	*	*	*	*rep	*	*rep	*	*	*	*	*	*	*	*	*	*	*	*	*	*	*	*	*	*	*	*	*	*	*	*
.	8C/	.	8C/yy	.	16r	.	16r	.	4ccc\	.	.	.	.	.	.	.	.	.	.	4cc\	.	.	.	.	.	.	.	.	.	.	.
.	.	.	.	.	16c\LL	.	16e-LL 16G/	.	.	.	.	.	.	.	.	.	.	.	.	.	.	.	.	.	.	.	.	.	.	.	.
.	8r	.	8ryy	.	16c\	.	16e- 16G/	.	.	.	.	.	.	.	.	.	.	.	.	.	.	.	.	.	.	.	.	.	.	.	.
.	.	.	.	.	16c\JJ	.	16e-JJ 16G/	.	.	.	.	.	.	.	.	.	.	.	.	.	.	.	.	.	.	.	.	.	.	.	.
.	4r	.	4ryy	.	8c\	.	8e- 8G/	.	4r	.	.	.	.	.	.	.	.	.	.	8r	.	.	.	.	.	.	.	.	.	.	.
.	.	.	.	.	8r	.	8r	.	.	.	.	.	.	.	.	.	.	.	.	8cc\	.	.	.	.	.	.	.	.	.	.	.
*	*	*	*	*	*Xrep	*	*Xrep	*	*	*	*	*	*	*	*	*	*	*	*	*	*	*	*	*	*	*	*	*	*	*	*
=11	=11	=11	=11	=11	=11	=11	=11	=11	=11	=11	=11	=11	=11	=11	=11	=11	=11	=11	=11	=11	=11	=11	=11	=11	=11	=11	=11	=11	=11	=11	=11
1ryy	8AA-/	.	8AA-/yy	.	16r	.	16r	.	1r	.	1ryy	1ryy	.	1ryy	.	1ryy	1ryy	.	1ryy	4cc\	1ryy	.	1ryy	1ryy	.	1ryy	.	1ryy	.	1r	.
.	.	.	.	.	16c\LL	.	16fLL 16A-/	.	.	.	.	.	.	.	.	.	.	.	.	.	.	.	.	.	.	.	.	.	.	.	.
.	8r	.	8ryy	.	16c\	.	16f 16A-/	.	.	.	.	.	.	.	.	.	.	.	.	.	.	.	.	.	.	.	.	.	.	.	.
.	.	.	.	.	16c\JJ	.	16fJJ 16A-/	.	.	.	.	.	.	.	.	.	.	.	.	.	.	.	.	.	.	.	.	.	.	.	.
.	4r	.	4ryy	.	8c\	.	8f 8A-/	.	.	.	.	.	.	.	.	.	.	.	.	(>16bn\LL	.	.	.	.	.	.	.	.	.	.	.
.	.	.	.	.	.	.	.	.	.	.	.	.	.	.	.	.	.	.	.	16cc\	.	.	.	.	.	.	.	.	.	.	.
.	.	.	.	.	8r	.	8r	.	.	.	.	.	.	.	.	.	.	.	.	16dd\	.	.	.	.	.	.	.	.	.	.	.
.	.	.	.	.	.	.	.	.	.	.	.	.	.	.	.	.	.	.	.	16cc\JJ	.	.	.	.	.	.	.	.	.	.	.
.	8A-\	.	8A-\yy	.	16r	.	16r	.	.	.	.	.	.	.	.	.	.	.	.	4.ee-\)	.	.	.	.	.	.	.	.	.	.	.
.	.	.	.	.	16A-/LL	.	16f#XLL 16c/	.	.	.	.	.	.	.	.	.	.	.	.	.	.	.	.	.	.	.	.	.	.	.	.
.	8r	.	8ryy	.	16A-/	.	16f# 16c/	.	.	.	.	.	.	.	.	.	.	.	.	.	.	.	.	.	.	.	.	.	.	.	.
.	.	.	.	.	16A-/JJ	.	16f#JJ 16c/	.	.	.	.	.	.	.	.	.	.	.	.	.	.	.	.	.	.	.	.	.	.	.	.
.	4r	.	4ryy	.	8A-/	.	8f# 8c/	.	.	.	.	.	.	.	.	.	.	.	.	.	.	.	.	.	.	.	.	.	.	.	.
.	.	.	.	.	8r	.	8r	.	.	.	.	.	.	.	.	.	.	.	.	8f#X/	.	.	.	.	.	.	.	.	.	.	.
!!LO:PB:g=original
=12	=12	=12	=12	=12	=12	=12	=12	=12	=12	=12	=12	=12	=12	=12	=12	=12	=12	=12	=12	=12	=12	=12	=12	=12	=12	=12	=12	=12	=12	=12	=12
1ryy	8G\	.	8G\yy	.	16r	.	16r	.	1r	.	1r	1r	.	1r	.	1r	1r	.	1r	(<4.g/	1r	.	1r	1r	.	1r	.	1r	.	1r	.
.	.	.	.	.	16G/LL	.	16gLL 16Bn/	.	.	.	.	.	.	.	.	.	.	.	.	.	.	.	.	.	.	.	.	.	.	.	.
.	8r	.	8ryy	.	16G/	.	16g 16B/	.	.	.	.	.	.	.	.	.	.	.	.	.	.	.	.	.	.	.	.	.	.	.	.
.	.	.	.	.	16G/JJ	.	16gJJ 16B/	.	.	.	.	.	.	.	.	.	.	.	.	.	.	.	.	.	.	.	.	.	.	.	.
.	4r	.	4ryy	.	8G/	.	8g 8B/	.	.	.	.	.	.	.	.	.	.	.	.	.	.	.	.	.	.	.	.	.	.	.	.
.	.	.	.	.	8r	.	8r	.	.	.	.	.	.	.	.	.	.	.	.	16bn/LL	.	.	.	.	.	.	.	.	.	.	.
.	.	.	.	.	.	.	.	.	.	.	.	.	.	.	.	.	.	.	.	16a-X/JJ)	.	.	.	.	.	.	.	.	.	.	.
*	*	*	*	*	*rep	*	*rep	*	*	*	*	*	*	*	*	*	*	*	*	*	*	*	*	*	*	*	*	*	*	*	*
.	8G\	.	8G\yy	.	16r	.	16r	.	.	.	.	.	.	.	.	.	.	.	.	4g/	.	.	.	.	.	.	.	.	.	.	.
.	.	.	.	.	16G/LL	.	16gLL 16B/	.	.	.	.	.	.	.	.	.	.	.	.	.	.	.	.	.	.	.	.	.	.	.	.
.	8r	.	8ryy	.	16G/	.	16g 16B/	.	.	.	.	.	.	.	.	.	.	.	.	.	.	.	.	.	.	.	.	.	.	.	.
!	!	!	!	!	!	!	!	!	!	!	!	!	!	!	!	!	!	!	!	!	!	!	!	!	!LO:DY:b	!	!	!	!	!	!
.	.	.	.	.	16G/JJ	.	16gJJ 16B/	.	.	.	.	.	.	.	.	.	.	.	.	.	.	.	.	.	p	.	.	.	.	.	.
.	4r	.	4ryy	.	8G/	.	8g 8B/	.	.	.	.	.	.	.	.	.	.	.	.	8r	.	.	.	.	.	.	.	.	.	.	.
.	.	.	.	.	8r	.	8r	.	.	.	.	.	.	.	.	.	.	.	.	8g/	.	.	.	.	.	.	.	.	.	.	.
*	*	*	*	*	*Xrep	*	*Xrep	*	*	*	*	*	*	*	*	*	*	*	*	*	*	*	*	*	*	*	*	*	*	*	*
=13	=13	=13	=13	=13	=13	=13	=13	=13	=13	=13	=13	=13	=13	=13	=13	=13	=13	=13	=13	=13	=13	=13	=13	=13	=13	=13	=13	=13	=13	=13	=13
*	*	*	*	*	*	*	*	*	*	*	*	*	*	*	*	*	*	*	*	*	*	*	*^	*	*	*	*	*	*	*	*
!	!	!	!	!	!	!	!	!	!	!	!	!	!	!	!	!	!	!	!	!	!	!LO:DY:b:rj	!	!	!	!	!	!	!	!	!	!
1ryy	4.F\	.	4.F\yy	.	16r	.	16r	.	1r	.	1ryy	1ryy	.	1ryy	.	1ryy	1ryy	.	1ryy	(<4a-/	4.F^<\	p	4.dd/	4.dd\	4.a- 4.Bn^>/	.	1r	.	1r	.	1r	.
.	.	.	.	.	16d\LL	.	16a-XLL 16Bn/	.	.	.	.	.	.	.	.	.	.	.	.	.	.	.	.	.	.	.	.	.	.	.	.	.
.	.	.	.	.	16d\	.	16a- 16B/	.	.	.	.	.	.	.	.	.	.	.	.	.	.	.	.	.	.	.	.	.	.	.	.	.
.	.	.	.	.	16d\JJ	.	16a-JJ 16B/	.	.	.	.	.	.	.	.	.	.	.	.	.	.	.	.	.	.	.	.	.	.	.	.	.
.	.	.	.	.	8d\	.	8a- 8B/	.	.	.	.	.	.	.	.	.	.	.	.	8Bn/)	.	.	.	.	.	.	.	.	.	.	.	.
.	8r	.	8ryy	.	8r	.	8r	.	.	.	.	.	.	.	.	.	.	.	.	8r	8r	.	8r	8rcyy	8r	.	.	.	.	.	.	.
*	*	*	*	*	*rep	*	*rep	*	*	*	*	*	*	*	*	*	*	*	*	*	*	*	*	*	*	*	*	*	*	*	*	*
.	4.F\	.	4.F\yy	.	16r	.	16r	.	.	.	.	.	.	.	.	.	.	.	.	(<4a-/	4.F^<\	.	4.dd/	4.dd\	4.a- 4.B^>/	.	.	.	.	.	.	.
.	.	.	.	.	16d\LL	.	16a-LL 16B/	.	.	.	.	.	.	.	.	.	.	.	.	.	.	.	.	.	.	.	.	.	.	.	.	.
.	.	.	.	.	16d\	.	16a- 16B/	.	.	.	.	.	.	.	.	.	.	.	.	.	.	.	.	.	.	.	.	.	.	.	.	.
.	.	.	.	.	16d\JJ	.	16a-JJ 16B/	.	.	.	.	.	.	.	.	.	.	.	.	.	.	.	.	.	.	.	.	.	.	.	.	.
.	.	.	.	.	4r	.	8a- 8B/	.	.	.	.	.	.	.	.	.	.	.	.	8B/)	.	.	.	.	.	.	.	.	.	.	.	.
.	8r	.	8ryy	.	.	.	8r	.	.	.	.	.	.	.	.	.	.	.	.	8r	8r	.	8r	8rcyy	8r	.	.	.	.	.	.	.
*	*	*	*	*	*Xrep	*	*Xrep	*	*	*	*	*	*	*	*	*	*	*	*	*	*	*	*	*	*	*	*	*	*	*	*	*
=14	=14	=14	=14	=14	=14	=14	=14	=14	=14	=14	=14	=14	=14	=14	=14	=14	=14	=14	=14	=14	=14	=14	=14	=14	=14	=14	=14	=14	=14	=14	=14	=14
1ryy	4.E-\	.	4.E-\yy	.	16r	.	16r	.	8r	.	1ryy	1ryy	.	1ryy	.	1ryy	1ryy	.	1ryy	8g/	4.E-\	.	4.cc/	4.cc\	4.g 4.c/	.	1ryy	.	1ryy	.	1ryy	.
!	!	!	!	!	!	!	!	!	!	!LO:DY:b	!	!	!	!	!	!	!	!	!	!	!	!	!	!	!	!	!	!	!	!	!	!
.	.	.	.	.	16e-\LL	.	16gLL 16c/	.	.	p	.	.	.	.	.	.	.	.	.	.	.	.	.	.	.	.	.	.	.	.	.	.
.	.	.	.	.	16e-\	.	16g 16c/	.	(>[>4gg\	.	.	.	.	.	.	.	.	.	.	(<[<4g/	.	.	.	.	.	.	.	.	.	.	.	.
.	.	.	.	.	16e-\JJ	.	16gJJ 16c/	.	.	.	.	.	.	.	.	.	.	.	.	.	.	.	.	.	.	.	.	.	.	.	.	.
.	.	.	.	.	8e-\	.	8g 8c/	.	.	.	.	.	.	.	.	.	.	.	.	.	.	.	.	.	.	.	.	.	.	.	.	.
.	8r	.	8ryy	.	8r	.	8r	.	32gg\LLL]	.	.	.	.	.	.	.	.	.	.	32g/LLL]	8r	.	8r	8rcyy	8r	.	.	.	.	.	.	.
.	.	.	.	.	.	.	.	.	32ff\	.	.	.	.	.	.	.	.	.	.	32f/	.	.	.	.	.	.	.	.	.	.	.	.
.	.	.	.	.	.	.	.	.	32ee-\	.	.	.	.	.	.	.	.	.	.	32e-/	.	.	.	.	.	.	.	.	.	.	.	.
.	.	.	.	.	.	.	.	.	32dd\JJJ	.	.	.	.	.	.	.	.	.	.	32d/JJJ	.	.	.	.	.	.	.	.	.	.	.	.
*	*	*	*	*	*rep	*	*rep	*	*	*	*	*	*	*	*	*	*	*	*	*	*	*	*	*	*	*	*	*	*	*	*	*
.	4.E-\	.	4.E-\yy	.	16r	.	16r	.	4cc\)	.	.	.	.	.	.	.	.	.	.	4c/)	2r	.	2r	2rcyy	2r	.	.	.	.	.	.	.
.	.	.	.	.	16e-\LL	.	16gLL 16c/	.	.	.	.	.	.	.	.	.	.	.	.	.	.	.	.	.	.	.	.	.	.	.	.	.
.	.	.	.	.	16e-\	.	16g 16c/	.	.	.	.	.	.	.	.	.	.	.	.	.	.	.	.	.	.	.	.	.	.	.	.	.
.	.	.	.	.	16e-\JJ	.	16gJJ 16c/	.	.	.	.	.	.	.	.	.	.	.	.	.	.	.	.	.	.	.	.	.	.	.	.	.
.	.	.	.	.	8e-\	.	8g 8c/	.	4r	.	.	.	.	.	.	.	.	.	.	8r	.	.	.	.	.	.	.	.	.	.	.	.
.	8r	.	8ryy	.	8r	.	8r	.	.	.	.	.	.	.	.	.	.	.	.	8c/	.	.	.	.	.	.	.	.	.	.	.	.
*	*	*	*	*	*Xrep	*	*Xrep	*	*	*	*	*	*	*	*	*	*	*	*	*	*	*	*	*	*	*	*	*	*	*	*	*
*	*	*	*	*	*	*	*	*	*	*	*	*	*	*	*	*	*	*	*	*	*	*	*v	*v	*	*	*	*	*	*	*	*
=15	=15	=15	=15	=15	=15	=15	=15	=15	=15	=15	=15	=15	=15	=15	=15	=15	=15	=15	=15	=15	=15	=15	=15	=15	=15	=15	=15	=15	=15	=15	=15
1ryy	4.F\	.	4.F\yy	.	16r	.	16r	.	16r	.	1ryy	1ryy	.	1ryy	.	1ryy	1ryy	.	1ryy	4.d/	1r	.	1r	1r	.	1ryy	.	1ryy	.	1ryy	.
.	.	.	.	.	16A-/LL	.	16c/LL	.	16d/LL	.	.	.	.	.	.	.	.	.	.	.	.	.	.	.	.	.	.	.	.	.	.
.	.	.	.	.	16A-/	.	16c/	.	16d/	.	.	.	.	.	.	.	.	.	.	.	.	.	.	.	.	.	.	.	.	.	.
.	.	.	.	.	16A-/JJ	.	16c/JJ	.	16d/JJ	.	.	.	.	.	.	.	.	.	.	.	.	.	.	.	.	.	.	.	.	.	.
.	.	.	.	.	8A-/	.	8c/	.	8d/	.	.	.	.	.	.	.	.	.	.	.	.	.	.	.	.	.	.	.	.	.	.
.	8r	.	8ryy	.	8r	.	8r	.	8r	.	.	.	.	.	.	.	.	.	.	8e-/	.	.	.	.	.	.	.	.	.	.	.
*	*	*	*	*	*rep	*	*rep	*	*rep	*	*	*	*	*	*	*	*	*	*	*	*	*	*	*	*	*	*	*	*	*	*
.	4.F\	.	4.F\yy	.	16r	.	16r	.	16r	.	.	.	.	.	.	.	.	.	.	(<8.f/L	.	.	.	.	.	.	.	.	.	.	.
.	.	.	.	.	16A-/LL	.	16c/LL	.	16d/LL	.	.	.	.	.	.	.	.	.	.	.	.	.	.	.	.	.	.	.	.	.	.
.	.	.	.	.	16A-/	.	16c/	.	16d/	.	.	.	.	.	.	.	.	.	.	.	.	.	.	.	.	.	.	.	.	.	.
.	.	.	.	.	16A-/JJ	.	16c/JJ	.	16d/JJ	.	.	.	.	.	.	.	.	.	.	32g/LL	.	.	.	.	.	.	.	.	.	.	.
.	.	.	.	.	.	.	.	.	.	.	.	.	.	.	.	.	.	.	.	32f/JJJ)	.	.	.	.	.	.	.	.	.	.	.
.	.	.	.	.	8A-/	.	8c/	.	8d/	.	.	.	.	.	.	.	.	.	.	8e-/L	.	.	.	.	.	.	.	.	.	.	.
.	8r	.	8ryy	.	8r	.	8r	.	8r	.	.	.	.	.	.	.	.	.	.	8d'</J	.	.	.	.	.	.	.	.	.	.	.
*	*	*	*	*	*Xrep	*	*Xrep	*	*Xrep	*	*	*	*	*	*	*	*	*	*	*	*	*	*	*	*	*	*	*	*	*	*
!!LO:PB:g=original
=16	=16	=16	=16	=16	=16	=16	=16	=16	=16	=16	=16	=16	=16	=16	=16	=16	=16	=16	=16	=16	=16	=16	=16	=16	=16	=16	=16	=16	=16	=16	=16
1ryy	8G\	.	8G\yy	.	16r	.	16r	.	16r	.	1r	1r	.	1r	.	1r	1r	.	1r	8.c/L	1r	.	1r	1r	.	1r	.	1r	.	1r	.
.	.	.	.	.	16G/LL	.	16c/LL	.	16e-/LL	.	.	.	.	.	.	.	.	.	.	.	.	.	.	.	.	.	.	.	.	.	.
.	8r	.	8ryy	.	16G/	.	16c/	.	16e-/	.	.	.	.	.	.	.	.	.	.	.	.	.	.	.	.	.	.	.	.	.	.
.	.	.	.	.	16G/JJ	.	16c/JJ	.	16e-/JJ	.	.	.	.	.	.	.	.	.	.	16G/Jk	.	.	.	.	.	.	.	.	.	.	.
.	4r	.	4ryy	.	8G/	.	8c/	.	8e-/	.	.	.	.	.	.	.	.	.	.	[<4e-/	.	.	.	.	.	.	.	.	.	.	.
.	.	.	.	.	8r	.	8r	.	8r	.	.	.	.	.	.	.	.	.	.	.	.	.	.	.	.	.	.	.	.	.	.
.	8G\	.	8G\yy	.	8r	.	8r	.	8r	.	.	.	.	.	.	.	.	.	.	8.e-/L]	.	.	.	.	.	.	.	.	.	.	.
.	8r	.	8ryy	.	8G/	.	8c/	.	8e-/	.	.	.	.	.	.	.	.	.	.	.	.	.	.	.	.	.	.	.	.	.	.
.	.	.	.	.	.	.	.	.	.	.	.	.	.	.	.	.	.	.	.	16G/Jk	.	.	.	.	.	.	.	.	.	.	.
.	8GG/	.	8GG/yy	.	8r	.	8r	.	8r	.	.	.	.	.	.	.	.	.	.	8.e-/L	.	.	.	.	.	.	.	.	.	.	.
.	8r	.	8ryy	.	8G/	.	8Bn/	.	8f/	.	.	.	.	.	.	.	.	.	.	.	.	.	.	.	.	.	.	.	.	.	.
.	.	.	.	.	.	.	.	.	.	.	.	.	.	.	.	.	.	.	.	16d/Jk	.	.	.	.	.	.	.	.	.	.	.
=17	=17	=17	=17	=17	=17	=17	=17	=17	=17	=17	=17	=17	=17	=17	=17	=17	=17	=17	=17	=17	=17	=17	=17	=17	=17	=17	=17	=17	=17	=17	=17
*	*	*	*	*	*	*	*	*	*	*	*	*	*	*	*	*	*	*	*	*	*	*	*^	*^	*	*	*	*	*	*	*
*	*tremolo	*	*tremolo	*	*tremolo	*	*tremolo	*	*tremolo	*	*	*	*	*	*	*	*	*	*	*	*	*	*	*	*	*	*	*	*	*	*	*	*
!	!	!LO:HP:b	!	!LO:HP:b	!	!LO:HP:b	!	!	!	!	!	!	!	!	!	!	!	!	!	!	!	!	!	!	!	!	!	!	!	!	!LO:HP:a	!	!
1ryy	16AA-/LL	<	16AA-/LLyy	<	16A-/LL	<	16c/LL	.	16e-/LL	.	2r	2r	.	2r	.	2r	2r	.	8r	4c/	1A-	.	1cc	1b-	1cc	(>4e-\	.	(>4ee-\	.	4ee-\	<	1ccc	.
.	16AA-/	.	16AA-/	.	16A-/	.	16c/	.	16e-/	.	.	.	.	.	.	.	.	.	.	.	.	.	.	.	.	.	.	.	.	.	.	.	.
.	16AA-/	.	16AA-/	.	16A-/	.	16c/	.	16e-/	.	.	.	.	.	.	.	.	.	16ccLL 16c/	.	.	.	.	.	.	.	.	.	.	.	.	.	.
.	16AA-/	.	16AA-/	.	16A-/	.	16c/	.	16e-/JJ	.	.	.	.	.	.	.	.	.	16ccJJ 16c/	.	.	.	.	.	.	.	.	.	.	.	.	.	.
.	16AA-/	.	16AA-/	.	16A-/	.	16c/	.	16en/LL	<	.	.	.	.	.	.	.	.	8ccL 8c/	4r	.	.	.	.	.	4en\	.	4een\	.	4een\	.	.	.
.	16AA-/	.	16AA-/	.	16A-/	.	16c/	.	16e/	.	.	.	.	.	.	.	.	.	.	.	.	.	.	.	.	.	.	.	.	.	.	.	.
.	16AA-/	.	16AA-/	.	16A-/	.	16c/	.	16e/	.	.	.	.	.	.	.	.	.	16ccL 16c/	.	.	.	.	.	.	.	.	.	.	.	.	.	.
.	16AA-/	.	16AA-/	.	16A-/	.	16c/	.	16e/JJ	.	.	.	.	.	.	.	.	.	16ccJJ 16c/	.	.	.	.	.	.	.	.	.	.	.	.	.	.
*	*	*	*	*	*	*	*	*	*	*	*	*	*	*	*	*	*	*	*rep	*	*	*	*	*	*	*	*	*	*	*	*	*	*
.	16AA-/	.	16AA-/	.	16A-/	.	16c/	.	16f/LL	.	4r	4r	.	4r	.	4r	4r	.	8ccL 8c/	4r	.	.	.	.	.	4f\	.	4ff\	.	4ff\	.	.	.
.	16AA-/	.	16AA-/	.	16A-/	.	16c/	.	16f/	.	.	.	.	.	.	.	.	.	.	.	.	.	.	.	.	.	.	.	.	.	.	.	.
.	16AA-/	.	16AA-/	.	16A-/	.	16c/	.	16f/	.	.	.	.	.	.	.	.	.	16ccL 16c/	.	.	.	.	.	.	.	.	.	.	.	.	.	.
.	16AA-/	.	16AA-/	.	16A-/	.	16c/	.	16f/JJ	.	.	.	.	.	.	.	.	.	16ccJJ 16c/	.	.	.	.	.	.	.	.	.	.	.	.	.	.
*	*	*	*	*	*	*	*	*	*	*	*	*tremolo	*	*	*	*	*	*	*Xrep	*	*	*	*	*	*	*	*	*	*	*	*	*	*
.	16AA-/	.	16AA-/	.	16A-/	.	16c/	.	16f#X/LL	.	4C/	32ee-\LLL	.	4CT/	.	4e-\	4e- 4c\	.	8ccL 8c/	4f#X/	.	.	.	.	.	4f#X\)	.	4ff#X\	.	4ff#X\	.	.	.
.	.	.	.	.	.	.	.	.	.	.	.	32ee-\	.	.	.	.	.	.	.	.	.	.	.	.	.	.	.	.	.	.	.	.	.
.	16AA-/	.	16AA-/	.	16A-/	.	16c/	.	16f#/	.	.	32ee-\	.	.	.	.	.	.	.	.	.	.	.	.	.	.	.	.	.	.	[	.	.
.	.	.	.	.	.	.	.	.	.	.	.	32ee-\	.	.	.	.	.	.	.	.	.	.	.	.	.	.	.	.	.	.	.	.	.
.	16AA-/	.	16AA-/	.	16A-/	.	16c/	.	16f#/	.	.	32ee-\	.	.	.	.	.	.	8ccJ 8c/	.	.	.	.	.	.	.	.	.	.	.	.	.	.
.	.	.	.	.	.	.	.	.	.	.	.	32ee-\	.	.	.	.	.	.	.	.	.	.	.	.	.	.	.	.	.	.	.	.	.
.	16AA-/JJ	.	16AA-/JJ	.	16A-/JJ	.	16c/JJ	.	16f#/JJ	.	.	32ee-\	.	.	.	.	.	.	.	.	.	.	.	.	.	.	.	.	.	.	.	.	.
.	.	[	.	[	.	[	.	.	.	.	.	32ee-\JJJ	.	.	.	.	.	.	.	.	.	.	.	.	.	.	.	.	.	.	.	.	.
*	*Xtremolo	*	*Xtremolo	*	*Xtremolo	*	*Xtremolo	*	*Xtremolo	*	*	*Xtremolo	*	*	*	*	*	*	*	*	*	*	*	*	*	*	*	*	*	*	*	*	*
*	*	*	*	*	*	*	*	*	*	*	*	*	*	*	*	*	*	*	*	*	*	*	*	*	*v	*v	*	*	*	*	*	*	*
=18	=18	=18	=18	=18	=18	=18	=18	=18	=18	=18	=18	=18	=18	=18	=18	=18	=18	=18	=18	=18	=18	=18	=18	=18	=18	=18	=18	=18	=18	=18	=18	=18
!	!	!LO:DY:b:rj	!	!LO:DY:b:rj	!	!LO:DY:b:rj	!	!LO:DY:b:rj	!	!LO:DY:b:rj	!	!	!	!	!	!	!	!LO:DY:b:rj	!	!	!	!	!	!	!	!LO:DY:b:rj	!	!	!	!LO:DY:a:rj	!	!
1ryy	8GG/	f	8GG/yy	f	8G/	f	8e- 8c/	f	8g/	f	8C/	8ee-\	.	8C/	.	8d\	8e- 8c\	f	8ee- 8e-/	8.g/L	8G\	.	8cc/	8cc\	8ee- 8g\	f	8gg\)	.	8gg\	f	8eee-\	.
.	8r	.	8ryy	.	8r	.	8r	.	8r	.	8r	8r	.	8r	.	8r	8r	.	8r	.	8r	.	8r	8rcyy	8r	.	8r	.	8r	.	8r	.
.	.	.	.	.	.	.	.	.	.	.	.	.	.	.	.	.	.	.	.	(<32a-/LL	.	.	.	.	.	.	.	.	.	.	.	.
.	.	.	.	.	.	.	.	.	.	.	.	.	.	.	.	.	.	.	.	32g/JJJ	.	.	.	.	.	.	.	.	.	.	.	.
.	4r	.	4ryy	.	4r	.	4r	.	4r	.	4r	4r	.	4r	.	4r	4r	.	4r	16f/LL	4r	.	4r	4rcyy	4r	.	4r	.	4r	.	4r	.
.	.	.	.	.	.	.	.	.	.	.	.	.	.	.	.	.	.	.	.	16e-/	.	.	.	.	.	.	.	.	.	.	.	.
.	.	.	.	.	.	.	.	.	.	.	.	.	.	.	.	.	.	.	.	16d/	.	.	.	.	.	.	.	.	.	.	.	.
.	.	.	.	.	.	.	.	.	.	.	.	.	.	.	.	.	.	.	.	16c/JJ)	.	.	.	.	.	.	.	.	.	.	.	.
.	.	.	.	.	.	.	.	.	.	.	.	.	.	.	.	.	.	.	.	(<16qqBn/LL	.	.	.	.	.	.	.	.	.	.	.	.
.	.	.	.	.	.	.	.	.	.	.	.	.	.	.	.	.	.	.	.	16qqd/	.	.	.	.	.	.	.	.	.	.	.	.
.	.	.	.	.	.	.	.	.	.	.	.	.	.	.	.	.	.	.	.	16qqf/JJ	.	.	.	.	.	.	.	.	.	.	.	.
.	8GG/	.	8GG/yy	.	8G/	.	8f 8d/	.	8bn 8d/	.	8C/	8ee-\	.	8GG/	.	8D/	8f 8Bn\	.	8dd 8g\	8.a-/L	8GG/	.	8dd 8g/	2rcyy	8ff 8dd\	.	8bbn\	.	8bbn\	.	8ddd\	.
.	8r	.	8ryy	.	8r	.	8r	.	8r	.	8r	8r	.	8r	.	8r	8r	.	8r	.	8r	.	8r	.	8r	.	8r	.	8r	.	8r	.
.	.	.	.	.	.	.	.	.	.	.	.	.	.	.	.	.	.	.	.	16g/Jk)	.	.	.	.	.	.	.	.	.	.	.	.
.	4r;>	.	4r;>yy	.	4r;>	.	4r;>	.	4r;>	.	4r;>	4r;>	.	4r;>	.	4r;>	4r;>	.	4r;>	8.ee-;>\L	4r;>	.	4r;>	.	4r;>	.	4r;>	.	4r;>	.	4r;>	.
.	.	.	.	.	.	.	.	.	.	.	.	.	.	.	.	.	.	.	.	16dd\Jk	.	.	.	.	.	.	.	.	.	.	.	.
=19	=19	=19	=19	=19	=19	=19	=19	=19	=19	=19	=19	=19	=19	=19	=19	=19	=19	=19	=19	=19	=19	=19	=19	=19	=19	=19	=19	=19	=19	=19	=19	=19
*	*	*	*	*	*	*	*	*	*	*	*	*	*	*	*	*	*	*	*	*	*	*	*	*	*^	*	*	*	*	*	*	*
*	*	*	*	*	*tremolo	*	*tremolo	*	*tremolo	*	*	*	*	*	*	*	*	*	*	*	*	*	*	*	*	*	*	*	*	*	*	*	*
!	!LO:TX:t=P:problem:mixed beam	!LO:DY:a	!LO:TX:t=P:problem:mixed beam	!LO:DY:a	!	!	!	!	!	!	!	!	!	!	!	!	!	!	!	!	!	!	!	!	!	!	!	!	!	!	!	!	!
!	!	!LO:HP:a	!	!LO:HP:a	!	!	!	!	!	!LO:HP:b	!	!	!	!	!LO:HP:b	!	!	!	!	!	!	!	!	!	!	!	!	!	!	!	!LO:HP:a	!	!
1ryy	16AA-/LL	<	16AA-/LLyy	<	16A-/LL	.	16e-/LL	.	16cc\LL	<	2r	2r	.	1CTT	<	2r	2r	.	8r	4cc\	2AA-/	.	2.cc/	2.cc\	1cc	(>4e-\	.	4ee-\	.	(>4ee-\	<	1ccc	.
.	16A-\	.	16A-\yy	.	16A-/	.	16e-/	.	16cc\	.	.	.	.	.	.	.	.	.	.	.	.	.	.	.	.	.	.	.	.	.	.	.	.
.	16A-\	.	16A-\yy	.	16A-/	.	16e-/	.	16cc\	.	.	.	.	.	.	.	.	.	16ccLL 16c/	.	.	.	.	.	.	.	.	.	.	.	.	.	.
!	!	!	!	!	!	!	!	!	!	!	!	!	!	!	!	!	!	!	!	!	!	!	!	!	!	!	!	!	!LO:HP:a	!	!	!	!
.	16A-\JJ	.	16A-\JJyy	.	16A-/	.	16e-/JJ	.	16cc\	.	.	.	.	.	.	.	.	.	16ccJJ 16c/	.	.	.	.	.	.	.	.	.	<	.	.	.	.
*	*tremolo	*	*tremolo	*	*	*	*	*	*	*	*	*	*	*	*	*	*	*	*	*	*	*	*	*	*	*	*	*	*	*	*	*	*
.	16A-\LL	.	16A-\LLyy	.	16A-/	.	16en/LL	.	16cc\	.	.	.	.	.	.	.	.	.	8ccL 8c/	4r	.	.	.	.	.	4en\	.	4een\	.	4een\	.	.	.
.	16A-\	.	16A-\	.	16A-/	.	16e/	.	16cc\	.	.	.	.	.	.	.	.	.	.	.	.	.	.	.	.	.	.	.	.	.	.	.	.
.	16A-\	.	16A-\	.	16A-/	.	16e/	.	16cc\	.	.	.	.	.	.	.	.	.	16ccL 16c/	.	.	.	.	.	.	.	.	.	.	.	.	.	.
.	16A-\JJ	.	16A-\JJ	.	16A-/	.	16e/JJ	.	16cc\	.	.	.	.	.	.	.	.	.	16ccJJ 16c/	.	.	.	.	.	.	.	.	.	.	.	.	.	.
*	*	*	*	*	*	*	*	*	*	*	*	*	*	*	*	*	*	*	*rep	*	*	*	*	*	*	*	*	*	*	*	*	*	*
.	16A-\LL	.	16A-\LLyy	.	16A-/	.	16f/LL	.	16cc\	.	4r	4r	.	.	.	4r	4r	.	8ccL 8c/	2r	2A-\	.	.	.	.	4f\	.	4ff\	.	4ff\	.	.	.
.	16A-\	.	16A-\	.	16A-/	.	16f/	.	16cc\	.	.	.	.	.	.	.	.	.	.	.	.	.	.	.	.	.	.	.	.	.	.	.	.
.	16A-\	.	16A-\	.	16A-/	.	16f/	.	16cc\	.	.	.	.	.	.	.	.	.	16ccL 16c/	.	.	.	.	.	.	.	.	.	.	.	.	.	.
.	16A-\	.	16A-\	.	16A-/	.	16f/JJ	.	16cc\JJ	.	.	.	.	.	.	.	.	.	16ccJJ 16c/	.	.	.	.	.	.	.	.	.	.	.	.	.	.
*	*	*	*	*	*	*	*	*	*	*	*	*tremolo	*	*	*	*	*	*	*Xrep	*	*	*	*	*	*	*	*	*	*	*	*	*	*
.	16A-\	.	16A-\	.	16A-/	.	16dLL 16c/	.	16f#X/LL	.	4C/	32ee-\LLL	.	.	.	4e-\	4f#X 4c\	.	8ccL 8c/	.	.	.	4dd/	4cc\	.	4f#X\)	.	4ff#X\	.	4ff#X\)	.	.	.
.	.	.	.	.	.	.	.	.	.	.	.	32ee-\	.	.	.	.	.	.	.	.	.	.	.	.	.	.	.	.	.	.	.	.	.
.	16A-\	.	16A-\	.	16A-/	.	16d 16c/	.	16f#/	.	.	32ee-\	.	.	.	.	.	.	.	.	.	.	.	.	.	.	.	.	[	.	[	.	.
.	.	.	.	.	.	.	.	.	.	.	.	32ee-\	.	.	.	.	.	.	.	.	.	.	.	.	.	.	.	.	.	.	.	.	.
.	16A-\	.	16A-\	.	16A-/	.	16d 16c/	.	16f#/	.	.	32ee-\	.	.	.	.	.	.	8ccJ 8c/	.	.	.	.	.	.	.	.	.	.	.	.	.	.
.	.	.	.	.	.	.	.	.	.	.	.	32ee-\	.	.	.	.	.	.	.	.	.	.	.	.	.	.	.	.	.	.	.	.	.
.	16A-\JJ	.	16A-\JJ	.	16A-/JJ	.	16dJJ 16c/	.	16f#/JJ	.	.	32ee-\	.	.	.	.	.	.	.	.	.	.	.	.	.	.	.	.	.	.	.	.	.
.	.	[	.	[	.	.	.	.	.	[[	.	32ee-\JJJ	.	.	[	.	.	.	.	.	.	.	.	.	.	.	.	.	.	.	.	.	.
*	*Xtremolo	*	*Xtremolo	*	*	*	*	*	*	*	*	*Xtremolo	*	*	*	*	*	*	*	*	*	*	*	*	*	*	*	*	*	*	*	*	*
*	*	*	*	*	*	*	*	*	*	*	*	*	*	*	*	*	*	*	*	*	*	*	*v	*v	*	*	*	*	*	*	*	*	*
!!LO:PB:g=original
=20	=20	=20	=20	=20	=20	=20	=20	=20	=20	=20	=20	=20	=20	=20	=20	=20	=20	=20	=20	=20	=20	=20	=20	=20	=20	=20	=20	=20	=20	=20	=20	=20
1ryy	4G\	.	4G\	.	4G/	.	4d 4Bn/	.	4g/	.	4C/	4ee-\	.	4GG/	.	4d\	4g 4Bn\	.	4g 4G/	4g;>/	4G\	.	4dd 4g/	4bn/	4g\	.	4gg\	.	4gg\	.	4bbn\	.
.	.	.	.	.	.	.	.	.	.	.	.	.	.	.	.	.	.	.	.	(<16qqa-X/LL	.	.	.	.	.	.	.	.	.	.	.	.
.	.	.	.	.	.	.	.	.	.	.	.	.	.	.	.	.	.	.	.	16qqan/	.	.	.	.	.	.	.	.	.	.	.	.
.	.	.	.	.	.	.	.	.	.	.	.	.	.	.	.	.	.	.	.	16qqb-/	.	.	.	.	.	.	.	.	.	.	.	.
.	.	.	.	.	.	.	.	.	.	.	.	.	.	.	.	.	.	.	.	16qqbn/	.	.	.	.	.	.	.	.	.	.	.	.
.	.	.	.	.	.	.	.	.	.	.	.	.	.	.	.	.	.	.	.	16qqcc/	.	.	.	.	.	.	.	.	.	.	.	.
.	.	.	.	.	.	.	.	.	.	.	.	.	.	.	.	.	.	.	.	16qqcc#X/	.	.	.	.	.	.	.	.	.	.	.	.
.	.	.	.	.	.	.	.	.	.	.	.	.	.	.	.	.	.	.	.	16qqdd/	.	.	.	.	.	.	.	.	.	.	.	.
.	.	.	.	.	.	.	.	.	.	.	.	.	.	.	.	.	.	.	.	16qqee-/	.	.	.	.	.	.	.	.	.	.	.	.
.	.	.	.	.	.	.	.	.	.	.	.	.	.	.	.	.	.	.	.	16qqeen/	.	.	.	.	.	.	.	.	.	.	.	.
.	.	.	.	.	.	.	.	.	.	.	.	.	.	.	.	.	.	.	.	16qqff/	.	.	.	.	.	.	.	.	.	.	.	.
.	.	.	.	.	.	.	.	.	.	.	.	.	.	.	.	.	.	.	.	16qqff#X/JJ	.	.	.	.	.	.	.	.	.	.	.	.
.	4r;>	.	4r;>	.	4r;>	.	4r;>	.	4r;>	.	4r;>	4r;>	.	4r;>	.	4r;>	4r;>	.	4r;>	4.gg;>\)	4r;>	.	4r;>	4r;>	4rcyy	.	4r;>	.	4r;>	.	4r;>	.
.	2r;>	.	2r;>	.	2r;>	.	2r;>	.	2r;>	.	2r;>	2r;>	.	2r;>	.	2r;>	2r;>	.	2r;>	.	2r;>	.	2r;>	2r;>	2rcyy	.	2r;>	.	2r;>	.	2r;>	.
.	.	.	.	.	.	.	.	.	.	.	.	.	.	.	.	.	.	.	.	(<16qqff#X/LL	.	.	.	.	.	.	.	.	.	.	.	.
.	.	.	.	.	.	.	.	.	.	.	.	.	.	.	.	.	.	.	.	16qqffn/	.	.	.	.	.	.	.	.	.	.	.	.
.	.	.	.	.	.	.	.	.	.	.	.	.	.	.	.	.	.	.	.	16qqeen/	.	.	.	.	.	.	.	.	.	.	.	.
.	.	.	.	.	.	.	.	.	.	.	.	.	.	.	.	.	.	.	.	16qqee-X/	.	.	.	.	.	.	.	.	.	.	.	.
.	.	.	.	.	.	.	.	.	.	.	.	.	.	.	.	.	.	.	.	16qqdd/	.	.	.	.	.	.	.	.	.	.	.	.
.	.	.	.	.	.	.	.	.	.	.	.	.	.	.	.	.	.	.	.	16qqdd-X/	.	.	.	.	.	.	.	.	.	.	.	.
.	.	.	.	.	.	.	.	.	.	.	.	.	.	.	.	.	.	.	.	16qqcc#/	.	.	.	.	.	.	.	.	.	.	.	.
.	.	.	.	.	.	.	.	.	.	.	.	.	.	.	.	.	.	.	.	16qqbn/	.	.	.	.	.	.	.	.	.	.	.	.
.	.	.	.	.	.	.	.	.	.	.	.	.	.	.	.	.	.	.	.	16qqb-X/	.	.	.	.	.	.	.	.	.	.	.	.
.	.	.	.	.	.	.	.	.	.	.	.	.	.	.	.	.	.	.	.	16qqan/	.	.	.	.	.	.	.	.	.	.	.	.
.	.	.	.	.	.	.	.	.	.	.	.	.	.	.	.	.	.	.	.	16qqa-X/JJ)	.	.	.	.	.	.	.	.	.	.	.	.
!	!	!	!	!	!	!	!	!	!	!	!	!	!	!	!	!	!	!	!	!LO:TX:a:t=P:problem:w źródle 8g połączone wspólną belką z 4 kolejnymi szesnastkami	!	!	!	!	!	!	!	!	!	!	!	!
.	.	.	.	.	.	.	.	.	.	.	.	.	.	.	.	.	.	.	.	8g/	.	.	.	.	.	.	.	.	.	.	.	.
.	.	.	.	.	.	.	.	.	.	.	.	.	.	.	.	.	.	.	.	(<16qqf#X/LL	.	.	.	.	.	.	.	.	.	.	.	.
.	.	.	.	.	.	.	.	.	.	.	.	.	.	.	.	.	.	.	.	16qqg/	.	.	.	.	.	.	.	.	.	.	.	.
.	.	.	.	.	.	.	.	.	.	.	.	.	.	.	.	.	.	.	.	16qqfn/	.	.	.	.	.	.	.	.	.	.	.	.
.	.	.	.	.	.	.	.	.	.	.	.	.	.	.	.	.	.	.	.	16qqg/JJ)	.	.	.	.	.	.	.	.	.	.	.	.
!	!	!	!	!	!	!LO:DY:b	!	!	!	!LO:DY:b	!	!	!	!	!	!	!	!	!	!	!	!	!	!	!	!	!	!	!	!	!	!
.	.	.	.	.	.	p	.	.	.	p	.	.	.	.	.	.	.	.	.	16d;>/KL|	.	.	.	.	.	.	.	.	.	.	.	.
.	.	.	.	.	.	.	.	.	.	.	.	.	.	.	.	.	.	.	.	(<8a-X/	.	.	.	.	.	.	.	.	.	.	.	.
.	.	.	.	.	.	.	.	.	.	.	.	.	.	.	.	.	.	.	.	16g/Jk)	.	.	.	.	.	.	.	.	.	.	.	.
*	*	*	*	*	*	*	*	*	*	*	*	*	*	*	*	*	*	*	*	*	*	*	*	*v	*v	*	*	*	*	*	*	*
=21	=21	=21	=21	=21	=21	=21	=21	=21	=21	=21	=21	=21	=21	=21	=21	=21	=21	=21	=21	=21	=21	=21	=21	=21	=21	=21	=21	=21	=21	=21	=21
1ryy	1r	.	16CC/LL	.	16c\LL	.	16en/LL	.	16cc\LL	.	1r	1r	.	1r	.	1r	1r	.	1r	4c/	1r	.	1r	1r	.	1r	.	1r	.	1r	.
.	.	.	16C/	.	16c\	.	16e/	.	16cc\	.	.	.	.	.	.	.	.	.	.	.	.	.	.	.	.	.	.	.	.	.	.
.	.	.	16C/	.	16c\	.	16e/	.	16cc\	.	.	.	.	.	.	.	.	.	.	.	.	.	.	.	.	.	.	.	.	.	.
.	.	.	16C/JJ	.	16c\	.	16e/JJ	.	16cc\JJ	.	.	.	.	.	.	.	.	.	.	.	.	.	.	.	.	.	.	.	.	.	.
*	*	*	*tremolo	*	*	*	*	*	*	*	*	*	*	*	*	*	*	*	*	*	*	*	*	*	*	*	*	*	*	*	*
.	.	.	16C/LL	.	16c\	.	16g/LL	.	16b-X\LL	.	.	.	.	.	.	.	.	.	.	4r	.	.	.	.	.	.	.	.	.	.	.
.	.	.	16C/	.	16c\	.	16g/	.	16b-\	.	.	.	.	.	.	.	.	.	.	.	.	.	.	.	.	.	.	.	.	.	.
.	.	.	16C/	.	16c\	.	16g/	.	16b-\	.	.	.	.	.	.	.	.	.	.	.	.	.	.	.	.	.	.	.	.	.	.
.	.	.	16C/JJ	.	16c\	.	16g/JJ	.	16b-\JJ	.	.	.	.	.	.	.	.	.	.	.	.	.	.	.	.	.	.	.	.	.	.
.	.	.	16C/LL	.	16c\	.	16f/LL	.	16a-X/LL	.	.	.	.	.	.	.	.	.	.	2r	.	.	.	.	.	.	.	.	.	.	.
.	.	.	16C/	.	16c\	.	16f/	.	16a-/	.	.	.	.	.	.	.	.	.	.	.	.	.	.	.	.	.	.	.	.	.	.
.	.	.	16C/	.	16c\	.	16f/	.	16a-/	.	.	.	.	.	.	.	.	.	.	.	.	.	.	.	.	.	.	.	.	.	.
.	.	.	16C/	.	16c\	.	16f/JJ	.	16a-/JJ	.	.	.	.	.	.	.	.	.	.	.	.	.	.	.	.	.	.	.	.	.	.
.	.	.	16C/	.	16c\	.	16d/LL	.	16f/LL	.	.	.	.	.	.	.	.	.	.	.	.	.	.	.	.	.	.	.	.	.	.
.	.	.	16C/	.	16c\	.	16d/	.	16f/	.	.	.	.	.	.	.	.	.	.	.	.	.	.	.	.	.	.	.	.	.	.
.	.	.	16C/	.	16c\	.	16d/	.	16f/	.	.	.	.	.	.	.	.	.	.	.	.	.	.	.	.	.	.	.	.	.	.
.	.	.	16C/JJ	.	16c\JJ	.	16d/JJ	.	16f/JJ	.	.	.	.	.	.	.	.	.	.	.	.	.	.	.	.	.	.	.	.	.	.
!!LO:PB:g=original
=22	=22	=22	=22	=22	=22	=22	=22	=22	=22	=22	=22	=22	=22	=22	=22	=22	=22	=22	=22	=22	=22	=22	=22	=22	=22	=22	=22	=22	=22	=22	=22
*	*	*	*	*	*	*	*	*	*	*	*	*	*	*	*	*	*	*	*^	*	*	*	*^	*^	*	*	*	*	*	*	*
!	!	!	!	!	!	!	!	!	!	!LO:HP:b	!	!	!	!	!	!	!	!	!	!	!	!	!	!	!	!	!	!	!	!	!	!	!	!
1ryy	2r	.	16C/LL	.	16c\LL	.	16c/LL	.	16en/LL	<	2r	2r	.	1r	.	2r	2r	.	2r	2rcyy	1r	2r	.	2r	2rcyy	2r	2rcyy	.	2r	.	2r	.	2r	.
.	.	.	16C/	.	16c\	.	16c/	.	16e/	.	.	.	.	.	.	.	.	.	.	.	.	.	.	.	.	.	.	.	.	.	.	.	.	.
.	.	.	16C/	.	16c\	.	16c/	.	16e/	.	.	.	.	.	.	.	.	.	.	.	.	.	.	.	.	.	.	.	.	.	.	.	.	.
.	.	.	16C/	.	16c\	.	16c/JJ	.	16e/JJ	.	.	.	.	.	.	.	.	.	.	.	.	.	.	.	.	.	.	.	.	.	.	.	.	.
.	.	.	16C/	.	16c\	.	16en/LL	.	16g/LL	.	.	.	.	.	.	.	.	.	.	.	.	.	.	.	.	.	.	.	.	.	.	.	.	.
.	.	.	16C/	.	16c\	.	16e/	.	16g/	.	.	.	.	.	.	.	.	.	.	.	.	.	.	.	.	.	.	.	.	.	.	.	.	.
.	.	.	16C/	.	16c\	.	16e/	.	16g/	.	.	.	.	.	.	.	.	.	.	.	.	.	.	.	.	.	.	.	.	.	.	.	.	.
!	!	!	!	!	!	!LO:DY:b	!	!	!	!	!	!	!	!	!	!	!	!	!	!	!	!	!	!	!	!	!	!	!	!	!	!	!	!
.	.	.	16C/	.	16c\	f	16e/JJ	.	16g/JJ	.	.	.	.	.	.	.	.	.	.	.	.	.	.	.	.	.	.	.	.	.	.	.	.	.
!	!	!	!	!	!	!	!	!	!	!	!	!	!LO:DY:b	!	!	!	!	!	!	!	!	!	!	!	!	!	!	!	!	!	!	!	!	!
.	4r	.	16C/	.	16c\	.	16f/LL	.	16a-/LL	.	4r	4r	f	.	.	4r	4r	.	4r	4rcyy	.	4r	.	4r	4rcyy	4r	4rcyy	.	4r	.	4r	.	4r	.
.	.	.	16C/	.	16c\	.	16f/	.	16a-/	.	.	.	.	.	.	.	.	.	.	.	.	.	.	.	.	.	.	.	.	.	.	.	.	.
!	!	!LO:DY:b	!	!	!	!	!	!	!	!	!	!	!	!	!	!	!	!	!	!	!	!	!	!	!	!	!	!	!	!	!	!	!	!
.	.	f	16C/	.	16c\	.	16f/	.	16a-/	.	.	.	.	.	.	.	.	.	.	.	.	.	.	.	.	.	.	.	.	.	.	.	.	.
.	.	.	16C/JJ	.	16c\JJ	.	16f/	.	16a-/JJ	[	.	.	.	.	.	.	.	.	.	.	.	.	.	.	.	.	.	.	.	.	.	.	.	.
*	*	*	*	*	*	*	*	*	*	*	*	*tremolo	*	*	*	*	*	*	*	*	*	*	*	*	*	*	*	*	*	*	*	*	*	*
!	!	!	!	!	!	!	!	!	!	!LODY:b	!	!	!	!	!	!	!	!LO:DY:b:rj	!	!	!	!	!	!	!	!	!	!	!	!	!	!LO:DY:a:rj	!	!
.	4D-X\	.	16D-X\LL	.	16d-X\LL	.	16f/	.	16bn/LL	f	4C/	32ee-\LLL	.	.	.	4A-X\	4f 4Bn\	f	4bn/	4f\	.	4D-X\	.	4ff/	4b-\	4ff/	4bn\	.	4bbn\	.	4bbn^>\	f	4fff\	.
.	.	.	.	.	.	.	.	.	.	.	.	32ee-\	.	.	.	.	.	.	.	.	.	.	.	.	.	.	.	.	.	.	.	.	.	.
.	.	.	16D-\	.	16d-\	.	16f/	.	16b/	.	.	32ee-\	.	.	.	.	.	.	.	.	.	.	.	.	.	.	.	.	.	.	.	.	.	.
.	.	.	.	.	.	.	.	.	.	.	.	32ee-\	.	.	.	.	.	.	.	.	.	.	.	.	.	.	.	.	.	.	.	.	.	.
.	.	.	16D-\	.	16d-\	.	16f/	.	16b/	.	.	32ee-\	.	.	.	.	.	.	.	.	.	.	.	.	.	.	.	.	.	.	.	.	.	.
.	.	.	.	.	.	.	.	.	.	.	.	32ee-\	.	.	.	.	.	.	.	.	.	.	.	.	.	.	.	.	.	.	.	.	.	.
.	.	.	16D-\JJ	.	16d-\JJ	.	16f/JJ	.	16b/JJ	.	.	32ee-\	.	.	.	.	.	.	.	.	.	.	.	.	.	.	.	.	.	.	.	.	.	.
.	.	.	.	.	.	.	.	.	.	.	.	32ee-\JJJ	.	.	.	.	.	.	.	.	.	.	.	.	.	.	.	.	.	.	.	.	.	.
*	*	*	*	*	*	*	*Xtremolo	*	*Xtremolo	*	*	*Xtremolo	*	*	*	*	*	*	*	*	*	*	*	*	*	*	*	*	*	*	*	*	*	*
*	*	*	*	*	*	*	*	*	*	*	*	*	*	*	*	*	*	*	*	*	*	*	*	*v	*v	*	*	*	*	*	*	*	*	*
*	*	*	*	*	*	*	*	*	*	*	*	*	*	*	*	*	*	*	*v	*v	*	*	*	*	*v	*v	*	*	*	*	*	*	*
=23||	=23||	=23||	=23||	=23||	=23||	=23||	=23||	=23||	=23||	=23||	=23||	=23||	=23||	=23||	=23||	=23||	=23||	=23||	=23||	=23||	=23||	=23||	=23||	=23||	=23||	=23||	=23||	=23||	=23||	=23||	=23||
*k[f#]	*k[bnenanf#]	*	*k[bnenanf#]	*	*k[bnenanf#]	*	*k[bnenanf#]	*	*k[bnenanf#]	*	*k[f#]	*k[f#]	*	*k[f#]	*	*k[bnenanf#]	*k[bnenanf#]	*	*k[bnenanf#]	*k[bnenanf#]	*k[bnenanf#]	*	*k[f#]	*k[bnenanf#]	*	*k[bnenanf#]	*	*k[bnenanf#]	*	*k[f#]	*
*G:	*G:	*	*G:	*	*G:	*	*G:	*	*G:	*	*G:	*G:	*	*G:	*	*G:	*G:	*	*G:	*G:	*G:	*	*G:	*G:	*	*G:	*	*G:	*	*G:	*
*M6/8	*M6/8	*	*M6/8	*	*M6/8	*	*M6/8	*	*M6/8	*	*M6/8	*M6/8	*	*M6/8	*	*M6/8	*M6/8	*	*M6/8	*M6/8	*M6/8	*	*M6/8	*M6/8	*	*M6/8	*	*M6/8	*	*M6/8	*
*	*	*	*	*	*	*	*	*	*	*	*	*	*	*	*	*	*	*	*	*	*	*	*	*^	*	*	*	*	*	*	*
!	!	!	!	!	!	!	!	!	!	!	!	!	!	!	!	!LO:TX:a:t=P:problem:w źródle przy kluczu błędnie zapisany krzyżyk c#, zamiast F#	!LO:TX:a:t=P:problem:w źródle krzyżyk przy kluczu na wysokości f, a nie F	!	!	!	!	!	!LO:TX:a:t=P:problem:w źródle przy kluczu brak krzyżyka	!	!	!	!	!	!	!	!LO:TX:a:i:t=Andantino.	!
!	!	!	!	!	!	!	!	!	!	!	!LO:TX:a:t=P:problem:w źródle przy kluczu brak krzyżyka	!LO:TX:a:t=P:problem:w źródle przy kluczu brak krzyżyka	!	!LO:TX:a:t=P:problem:w źródle przy kluczu brak krzyżyka	!	!	!	!	!	!	!	!	!	!	!	!	!	!	!	!	!	!
2.ryy	8C/	.	8C/	.	8c\	.	8e/	.	8cc\	.	8C/	8ee\	.	2.r	.	8G/	8e 8c\	.	8cc 8e/	2.r	8C/	.	8ee 8cc\	8ee 8cc\	4rcyy	.	8ccc\	.	8ccc\	.	8eee\	.
!	!	!	!LO:TX:a:t=P:problem:od tego miejsca do końca tej części partia ponownie dubluje partię kontrabasu; pozostawione puste takty	!	!	!	!	!	!	!	!	!	!	!	!	!	!	!	!	!	!	!	!	!	!	!	!	!	!	!	!	!
.	8r	.	8ryy	.	8r	.	8r	.	8r	.	8r	8r	.	.	.	8r	8r	.	8r	.	8r	.	8r	8r	.	.	8r	.	8r	.	8r	.
*	*	*	*	*	*	*	*	*	*	*	*	*	*	*	*	*	*	*	*	*	*	*	*	*Xtuplet	*	*	*	*	*	*	*	*
!	!	!	!	!	!	!	!	!	!LO:TUP:b:problem:klamra łukowa;łuk na górze, trójka na dole	!	!	!	!	!	!	!	!	!	!	!	!	!	!	!LO:TUP:a:problem:klamra łukowa	!	!	!	!	!	!	!LO:TUP:a:problem:klamra łukowa	!
.	8C/	.	8C/yy	.	8d 8c\	.	8f#/	.	24a/LL	.	8r	8r	.	.	.	8r	8r	.	8r	.	8c\	.	8dd\	24a/LL	8f#\	.	8ff#\	.	8r	.	24aa\LL	.
.	.	.	.	.	.	.	.	.	24g#X/	.	.	.	.	.	.	.	.	.	.	.	.	.	.	24g#X/	.	.	.	.	.	.	24gg#X\	.
.	.	.	.	.	.	.	.	.	24a/JJ	.	.	.	.	.	.	.	.	.	.	.	.	.	.	24a/JJ	.	.	.	.	.	.	24aa\JJ	.
.	8BB/	.	8BB/yy	.	8d 8B\	.	8g/	.	8dd\	.	4r	4r	.	.	.	4r	4r	.	4r	.	8B\	.	8dd\	8dd/	8g#\	.	8gg\	.	4r	.	8ddd\	.
.	8r	.	8ryy	.	8r	.	8r	.	8r	.	.	.	.	.	.	.	.	.	.	.	8r	.	8r	8r	8rcyy	.	8r	.	.	.	8r	.
*	*	*	*	*	*	*	*	*	*Xtuplet	*	*	*	*	*	*	*	*	*	*	*	*	*	*	*	*	*	*	*	*	*	*	*
!	!	!	!	!	!	!	!	!	!LO:TUP:b:problem:klamra łukowa	!	!	!	!	!	!	!	!	!	!	!	!	!	!	!LO:TUP:a:problem:klamra łukowa	!	!	!	!	!	!	!LO:TUP:a:problem:klamra łukowa	!
.	8C/	.	8C/yy	.	8d 8c\	.	8f#/	.	24a/LL	.	8r	8r	.	.	.	8r	8r	.	8r	.	8c\	.	8dd\	24a/LL	8f#\	.	8ff#\	.	8r	.	24aa\LL	.
.	.	.	.	.	.	.	.	.	24g#/	.	.	.	.	.	.	.	.	.	.	.	.	.	.	24g#/	.	.	.	.	.	.	24gg#\	.
.	.	.	.	.	.	.	.	.	24a/JJ	.	.	.	.	.	.	.	.	.	.	.	.	.	.	24a/JJ	.	.	.	.	.	.	24aa\JJ	.
=24	=24	=24	=24	=24	=24	=24	=24	=24	=24	=24	=24	=24	=24	=24	=24	=24	=24	=24	=24	=24	=24	=24	=24	=24	=24	=24	=24	=24	=24	=24	=24	=24
*	*	*	*	*	*	*	*	*	*	*	*	*	*	*	*	*	*	*	*^	*	*	*	*	*	*	*	*	*	*	*	*	*
2.ryy	8BB/	.	8BB/yy	.	8d 8B\	.	8g/	.	8dd\	.	8r	8r	.	8r	.	8r	8r	.	4rg	8rdd	4r	8B\	.	8dd\	8dd/	8g\	.	8gg\	.	8r	.	8ddd\	.
.	8r	.	8ryy	.	8r	.	8r	.	8r	.	8r	8r	.	8r	.	8r	8r	.	.	8rdd	.	8r	.	8r	8rff	8rcyy	.	8r	.	8r	.	8r	.
*	*	*	*	*	*	*	*	*	*	*	*	*tremolo	*	*	*	*	*	*	*Xtuplet	*	*	*	*	*	*	*	*	*	*	*Xtuplet	*	*	*
!	!	!	!	!	!	!	!	!	!LO:TUP:a:problem:klamra łukowa	!	!	!	!	!	!	!	!	!	!	!	!	!	!	!	!LO:TUP:a:problem:klamra łukowa	!	!	!	!	!	!	!LO:TUP:a:problem:klamra łukowa	!
.	8C/	.	8C/yy	.	8e 8c\	.	8a/	.	24cc\LL	.	8C/L	32ee\LL	.	8C/	.	8G/	8e 8A\	.	24cc/LL	8a\	8r	8C/	.	8ee 8cc\	24cc/LL	8a\	.	8aa\	.	(>24ccc\LL	.	24ccc\LL	.
.	.	.	.	.	.	.	.	.	.	.	.	32ee\	.	.	.	.	.	.	.	.	.	.	.	.	.	.	.	.	.	.	.	.	.
.	.	.	.	.	.	.	.	.	24dd\	.	.	.	.	.	.	.	.	.	24dd/	.	.	.	.	.	24dd/	.	.	.	.	24ddd\	.	24ddd\	.
.	.	.	.	.	.	.	.	.	.	.	.	32ee\	.	.	.	.	.	.	.	.	.	.	.	.	.	.	.	.	.	.	.	.	.
.	.	.	.	.	.	.	.	.	24cc\JJ	.	.	.	.	.	.	.	.	.	24cc/JJ	.	.	.	.	.	24cc/JJ	.	.	.	.	24ccc\JJ	.	24ccc\JJ	.
.	.	.	.	.	.	.	.	.	.	.	.	32ee\JJ	.	.	.	.	.	.	.	.	.	.	.	.	.	.	.	.	.	.	.	.	.
*	*	*	*	*	*	*	*	*	*	*	*	*Xtremolo	*	*	*	*	*	*	*	*	*	*	*	*	*	*	*	*	*	*	*	*	*
!	!	!	!	!	!	!	!	!	!	!	!	!LO:TX:a:t=P:problem:w źródle ta nuta połączona belką z poprzedzającym ją tremolem	!	!	!	!	!	!	!	!	!	!	!	!	!	!	!	!	!	!	!	!	!
.	8D/	.	8D/yy	.	8d\	.	8g/	.	8b\	.	8C/J	8ee\	.	8GG/	.	8A/	8d 8B\	.	8b/	8g\	8r	8D/	.	8dd\	8b/	8g\	.	8gg\	.	8bb\)	.	8bb\	.
.	8r	.	8ryy	.	8r	.	8r	.	8r	.	8r	8r	.	8r	.	8r	8r	.	8r	8rcyy	8r	8r	.	8r	8r	8rcyy	.	8r	.	8r	.	8r	.
.	8r	.	8ryy	.	8r	.	8r	.	8r	.	8r	8r	.	8r	.	8r	8r	.	8r	8rcyy	24d'</LL	8r	.	8r	8r	8rcyy	.	8r	.	8r	.	8r	.
.	.	.	.	.	.	.	.	.	.	.	.	.	.	.	.	.	.	.	.	.	24g'</	.	.	.	.	.	.	.	.	.	.	.	.
.	.	.	.	.	.	.	.	.	.	.	.	.	.	.	.	.	.	.	.	.	24b'</JJ	.	.	.	.	.	.	.	.	.	.	.	.
*	*	*	*	*	*	*	*	*	*	*	*	*	*	*	*	*	*	*	*v	*v	*	*	*	*	*v	*v	*	*	*	*	*	*	*
=25	=25	=25	=25	=25	=25	=25	=25	=25	=25	=25	=25	=25	=25	=25	=25	=25	=25	=25	=25	=25	=25	=25	=25	=25	=25	=25	=25	=25	=25	=25	=25
2.ryy	8D\	.	8D\yy	.	8g 8G\	.	8b 8d/	.	8dd\	.	8C/	8ee\	.	8GG/	.	8A\	8d 8B\	.	8b 8g/	8dd\	8D\	.	8dd 8g/	8dd 8b\	.	8bb\	.	8dd\	.	8ddd\	.
.	8r	.	8ryy	.	8r	.	8r	.	8r	.	8r	8r	.	8r	.	8r	8r	.	8r	8r	8r	.	8r	8r	.	8r	.	8r	.	8r	.
!	!	!	!	!	!	!	!	!	!	!	!	!	!	!	!	!	!	!	!	!LO:TUP:b	!	!	!	!	!	!	!	!	!	!	!
.	8r	.	8ryy	.	8r	.	8r	.	8r	.	8r	8r	.	8r	.	8r	8r	.	8r	24g'</LL	8r	.	8r	8r	.	8r	.	8r	.	8r	.
.	.	.	.	.	.	.	.	.	.	.	.	.	.	.	.	.	.	.	.	24b'</	.	.	.	.	.	.	.	.	.	.	.
.	.	.	.	.	.	.	.	.	.	.	.	.	.	.	.	.	.	.	.	24dd'</JJ	.	.	.	.	.	.	.	.	.	.	.
.	8D\	.	8D\yy	.	8g 8G\	.	8dd 8d/	.	8gg 8b\	.	8C/	8ee\	.	8GG/	.	8A\	8d 8B\	.	8dd 8b\	8gg'\	8D\	.	8dd 8g/	8gg 8b\	.	8bb\	.	8gg\	.	8ggg\	.
.	8r	.	8ryy	.	8r	.	8r	.	8r	.	8r	8r	.	8r	.	8r	8r	.	8r	8r	8r	.	8r	8r	.	8r	.	8r	.	8r	.
!	!	!	!	!	!	!	!	!	!	!	!	!	!	!	!	!	!	!	!	!LO:TUP:a:problem:klamra łukowa	!	!	!	!	!	!	!	!	!	!	!
.	8r	.	8ryy	.	8r	.	8r	.	8r	.	8r	8r	.	8r	.	8r	8r	.	8r	24dd\LL	8r	.	8r	8r	.	8r	.	8r	.	8r	.
.	.	.	.	.	.	.	.	.	.	.	.	.	.	.	.	.	.	.	.	24cc#X\	.	.	.	.	.	.	.	.	.	.	.
.	.	.	.	.	.	.	.	.	.	.	.	.	.	.	.	.	.	.	.	24dd\JJ	.	.	.	.	.	.	.	.	.	.	.
!!LO:PB:g=original
=26	=26	=26	=26	=26	=26	=26	=26	=26	=26	=26	=26	=26	=26	=26	=26	=26	=26	=26	=26	=26	=26	=26	=26	=26	=26	=26	=26	=26	=26	=26	=26
*	*	*	*	*	*	*	*	*	*	*	*	*	*	*	*	*	*	*	*	*	*	*	*^	*	*	*	*	*	*	*	*
2.ryy	8D\	.	8D\yy	.	8d 8A\	.	8d 8c/	.	8f# 8A/	.	8C/	8ee\	.	8C/	.	8A\	8f# 8A\	.	8cc 8a/	(>8.ff#\L	8D\	.	8dd/	8cc\	8ff# 8cc\	.	8aa\	.	8ff#\	.	8fff#\	.
.	8r	.	8ryy	.	8r	.	8r	.	8r	.	8r	8r	.	8r	.	8r	8r	.	8r	.	8r	.	8r	8ryy	8r	.	8r	.	8r	.	8r	.
.	.	.	.	.	.	.	.	.	.	.	.	.	.	.	.	.	.	.	.	16ee\L	.	.	.	.	.	.	.	.	.	.	.	.
.	8r	.	8ryy	.	8r	.	8r	.	8r	.	8r	8r	.	8r	.	8r	8r	.	8r	16dd\	8r	.	8r	8ryy	8r	.	8r	.	8r	.	8r	.
.	.	.	.	.	.	.	.	.	.	.	.	.	.	.	.	.	.	.	.	16cc\JJ)	.	.	.	.	.	.	.	.	.	.	.	.
.	4r	.	4ryy	.	4r	.	4r	.	4r	.	4r	4r	.	4r	.	4r	4r	.	4r	(>8b\L	4r	.	4r	8rcyy	4r	.	4r	.	4r	.	4r	.
.	.	.	.	.	.	.	.	.	.	.	.	.	.	.	.	.	.	.	.	32cc\LL	.	.	.	8rcyy	.	.	.	.	.	.	.	.
.	.	.	.	.	.	.	.	.	.	.	.	.	.	.	.	.	.	.	.	32b\	.	.	.	.	.	.	.	.	.	.	.	.
.	.	.	.	.	.	.	.	.	.	.	.	.	.	.	.	.	.	.	.	32a\	.	.	.	.	.	.	.	.	.	.	.	.
.	.	.	.	.	.	.	.	.	.	.	.	.	.	.	.	.	.	.	.	32b\JJJ)	.	.	.	.	.	.	.	.	.	.	.	.
.	.	.	.	.	.	.	.	.	.	.	.	.	.	.	.	.	.	.	.	(<8qdd/	.	.	.	.	.	.	.	.	.	.	.	.
.	8r;>	.	8r;>	.	8r;>	.	8r;>	.	8r;>	.	8r;>	8r;>	.	8r;>	.	8r;>	8r;>	.	8r;>	16.cc;>\LL)	8r;>	.	8r;>	8rc;yy	8r;>	.	8r;>	.	8r;>	.	8r;>	.
.	.	.	.	.	.	.	.	.	.	.	.	.	.	.	.	.	.	.	.	32a'\JJk	.	.	.	.	.	.	.	.	.	.	.	.
*	*	*	*	*	*	*	*	*	*	*	*	*	*	*	*	*	*	*	*	*	*	*	*v	*v	*	*	*	*	*	*	*	*
=27	=27	=27	=27	=27	=27	=27	=27	=27	=27	=27	=27	=27	=27	=27	=27	=27	=27	=27	=27	=27	=27	=27	=27	=27	=27	=27	=27	=27	=27	=27	=27
2.ryy	8GG/	.	8GG/yy	.	8G/	.	8d 8B/	.	8g 8G/	.	2.r	2.r	.	2.r	.	2.r	2.r	.	8r	8g/	2.r	.	2.r	2.r	.	2.r	.	2.r	.	2.r	.
.	8r	.	8ryy	.	8r	.	8r	.	8r	.	.	.	.	.	.	.	.	.	16g/LL	8r	.	.	.	.	.	.	.	.	.	.	.
.	.	.	.	.	.	.	.	.	.	.	.	.	.	.	.	.	.	.	16g/J	.	.	.	.	.	.	.	.	.	.	.	.
.	8r	.	8ryy	.	8r	.	8r	.	8r	.	.	.	.	.	.	.	.	.	8g/J	8r	.	.	.	.	.	.	.	.	.	.	.
.	8GG/	.	8GG/yy	.	8G/	.	8d/	.	8fn 8G/	.	.	.	.	.	.	.	.	.	8r	4r	.	.	.	.	.	.	.	.	.	.	.
.	8r	.	8ryy	.	8r	.	8r	.	8r	.	.	.	.	.	.	.	.	.	16g/LL	.	.	.	.	.	.	.	.	.	.	.	.
.	.	.	.	.	.	.	.	.	.	.	.	.	.	.	.	.	.	.	16g/J	.	.	.	.	.	.	.	.	.	.	.	.
.	8r	.	8ryy	.	8r	.	8r	.	8r	.	.	.	.	.	.	.	.	.	8g/J	8r	.	.	.	.	.	.	.	.	.	.	.
=28	=28	=28	=28	=28	=28	=28	=28	=28	=28	=28	=28	=28	=28	=28	=28	=28	=28	=28	=28	=28	=28	=28	=28	=28	=28	=28	=28	=28	=28	=28	=28
2.ryy	8GG/	.	8GG/yy	.	8G/	.	8c/	.	8e 8G/	.	2.r	2.r	.	2.r	.	2.r	2.r	.	8r	2.r	2.r	.	2.r	2.r	.	2.r	.	2.r	.	2.r	.
.	8r	.	8ryy	.	8r	.	8r	.	8r	.	.	.	.	.	.	.	.	.	16g/LL	.	.	.	.	.	.	.	.	.	.	.	.
.	.	.	.	.	.	.	.	.	.	.	.	.	.	.	.	.	.	.	16g/J	.	.	.	.	.	.	.	.	.	.	.	.
.	8r	.	8ryy	.	8r	.	8r	.	8r	.	.	.	.	.	.	.	.	.	8g/J	.	.	.	.	.	.	.	.	.	.	.	.
.	8GG/	.	8GG/yy	.	8G/	.	8B/	.	8d 8G/	.	.	.	.	.	.	.	.	.	8r	.	.	.	.	.	.	.	.	.	.	.	.
.	8r	.	8ryy	.	8r	.	8r	.	8r	.	.	.	.	.	.	.	.	.	16g/LL	.	.	.	.	.	.	.	.	.	.	.	.
.	.	.	.	.	.	.	.	.	.	.	.	.	.	.	.	.	.	.	16g/J	.	.	.	.	.	.	.	.	.	.	.	.
!	!	!	!	!	!	!	!	!	!	!	!	!	!	!	!	!	!	!	!LO:TX:a:t=P:problem:w źródle ta fermata znajduje się przed samą kreską taktową	!	!	!	!	!	!	!	!	!	!	!	!
.	8r	.	8ryy	.	8r	.	8r	.	8r;>	.	.	.	.	.	.	.	.	.	8g/J;>	.	.	.	.	.	.	.	.	.	.	.	.
==	==	==	==	==	==	==	==	==	==	==	==	==	==	==	==	==	==	==	==	==	==	==	==	==	==	==	==	==	==	==	==
*-	*-	*-	*-	*-	*-	*-	*-	*-	*-	*-	*-	*-	*-	*-	*-	*-	*-	*-	*-	*-	*-	*-	*-	*-	*-	*-	*-	*-	*-	*-	*-
!!!system-decoration: ({s1,s2}s3,s4,s5,s6{s7,s8}{s9,s10}s11{s12,s13}{s14,s15}s16{s17,s18}s19)
!!!RDF**kern: | = vertical stroke
!!!RDF**dynam: < = "cresc:", 'fontstyle="italics"
!!!RDF**kern: > = above
!!!RDF**kern: < = below
!!!EED: Antoni Szymański
!!!EST: 2021-06-17
!!!ENC: Mateusz Solarz
!!!END: 2021-06-09
